;Generated by Cura LulzBot Edition GCodeWriter Version: 3.6.37
;FLAVOR:Marlin
;TIME:706
;Filament used: 0.317504m
;Layer height: 0.18
;Generated with Cura_SteamEngine 3.6.37-win10
M82 ;absolute extrusion mode
;This G-Code has been generated specifically for the LulzBot Sidekick with a Universal Tool Head
;
;The following lines can be uncommented for printer specific fine tuning
;More information can be found at https://marlinfw.org/meta/gcode/ (Note: current values are based on SE Tool Head)
;
;M92 E420                 ;Set Axis Steps-per-unit
;M301 P21.0 I1.78 D61.93  ;Set Hotend PID
;M906 E960                ;TMC Motor Current
;
G90                       ; absolute coordinate
M82                       ; set extruder to absolute mode
G92 E0                    ; set extruder position to 0
M117 Heating...           ; progress indicator message on LCD
M140 S60.0   ; start bed heating up
M109 R140        ; soften filament before homing Z
G28                       ; Home all axis
G1 E-15 F100              ; retract filament
M104 S140         ; start extruder heating to probe temp
M190 S60.0   ; wait for bed to reach printing temp
G29                                        ; start auto leveling
G0 X0 Y0 F5000
M109 R210 ; wait for extruder to reach initial printing temp
M117 SideKick Printing...                  ; progress indicator message on LCD
G1 Z2 E0 F75                               ; prime tiny bit of filament into the nozzle
M221 S100 T0
G92 E0
G1 F600 E-1.75
;LAYER_COUNT:34
;LAYER:0
M107
;MESH:
G0 F600 X66.864 Y77.639 Z0.425
;TYPE:WALL-INNER
G1 F600 E0
G1 F900 X66.92 Y77.658 E0.00522
G1 X68.736 Y78.978 E0.20357
G1 X68.78 Y79.018 E0.20882
G1 X69.91 Y80.974 E0.40839
G1 X69.929 Y81.019 E0.41271
G1 X70.164 Y83.26 E0.61178
G1 X70.164 Y83.316 E0.61673
G1 X69.471 Y85.448 E0.81479
G1 X69.446 Y85.504 E0.8202
G1 X67.94 Y87.178 E1.01914
G1 X67.899 Y87.215 E1.02402
G1 X65.847 Y88.128 E1.22244
G1 X65.787 Y88.148 E1.22803
G1 X63.542 Y88.147 E1.42637
G1 X63.478 Y88.141 E1.43205
G1 X61.429 Y87.229 E1.63019
G1 X61.379 Y87.2 E1.6353
G1 X59.872 Y85.524 E1.83442
G1 X59.84 Y85.48 E1.83923
G1 X59.132 Y83.287 E2.04282
G1 X59.379 Y80.993 E2.24666
G1 X60.506 Y79.04 E2.44587
G1 X60.536 Y78.998 E2.45043
G1 X62.364 Y77.671 E2.65
G1 X62.406 Y77.646 E2.65431
G1 X64.611 Y77.179 E2.85344
G1 X64.664 Y77.173 E2.85815
G1 X66.864 Y77.639 E3.05683
G0 F600 X66.838 Y77.735
G0 X63.035 Y81.365
G0 X62.542 Y82.719
G0 X62.989 Y84.113
G0 X63.065 Y84.049
G1 F900 X64.291 Y84.756 E3.18186
G1 X65.684 Y84.51 E3.30684
G1 X66.593 Y83.427 E3.43175
G1 X66.593 Y82.012 E3.55676
G1 X65.684 Y80.929 E3.68168
G1 X64.291 Y80.683 E3.80665
G1 X63.065 Y81.39 E3.93168
G1 X62.582 Y82.719 E4.05661
G1 X63.065 Y84.049 E4.18162
G0 F600 X63.473 Y83.707
;TYPE:WALL-OUTER
G1 F900 X64.383 Y84.232 E4.27444
G1 X65.418 Y84.049 E4.36729
G1 X66.093 Y83.245 E4.46004
G1 X66.093 Y82.194 E4.55289
G1 X65.418 Y81.39 E4.64564
G1 X64.383 Y81.207 E4.7385
G1 X63.473 Y81.732 E4.83131
G1 X63.114 Y82.719 E4.9241
G1 X63.473 Y83.707 E5.01697
G0 F600 X63.689 Y83.832
G0 X63.39 Y84.35
G0 X63.035 Y84.074
G0 X62.542 Y82.719
G0 X63.035 Y81.365
G0 X66.838 Y77.735
G0 X66.995 Y77.156
G1 F900 X67.15 Y77.207 E5.03139
G1 X69.053 Y78.591 E5.23927
G1 X69.173 Y78.698 E5.25348
G1 X70.355 Y80.746 E5.46238
G1 X70.418 Y80.886 E5.47595
G1 X70.664 Y83.235 E5.68461
G1 X70.665 Y83.393 E5.69857
G1 X69.936 Y85.635 E5.90685
G1 X69.871 Y85.779 E5.92081
G1 X68.294 Y87.532 E6.12913
G1 X68.174 Y87.64 E6.14339
G1 X66.028 Y88.595 E6.35091
G1 X65.867 Y88.648 E6.36589
G1 X63.515 Y88.647 E6.57368
G1 X63.35 Y88.631 E6.58832
G1 X61.202 Y87.675 E6.79604
G1 X61.06 Y87.593 E6.81053
G1 X59.483 Y85.839 E7.01891
G1 X59.389 Y85.711 E7.03294
G1 X58.659 Y83.465 E7.24159
G1 X58.627 Y83.314 E7.25522
G1 X58.875 Y80.964 E7.46399
G1 X58.907 Y80.811 E7.4778
G1 X60.087 Y78.765 E7.68647
G1 X60.179 Y78.639 E7.70025
G1 X62.084 Y77.256 E7.90823
G1 X62.224 Y77.174 E7.92256
G1 X64.531 Y76.685 E8.13091
G1 X64.69 Y76.668 E8.14504
G1 X66.995 Y77.156 E8.35319
G0 F600 X67.15 Y77.207
G0 X67.22 Y77.258
G0 X66.705 Y78.107
;TYPE:SKIN
G1 F900 X68.401 Y79.34 E8.53844
G1 X69.45 Y81.157 E8.7238
G1 X69.67 Y83.252 E8.9099
G1 X69.024 Y85.241 E9.09466
G1 X67.617 Y86.805 E9.28052
G1 X65.699 Y87.658 E9.46597
G1 X63.594 Y87.657 E9.65194
G1 X61.683 Y86.806 E9.83676
G1 X60.279 Y85.245 E10.02224
G1 X59.631 Y83.239 E10.20849
G1 X59.857 Y81.147 E10.39438
G1 X60.9 Y79.339 E10.57879
G1 X62.597 Y78.108 E10.76401
G1 X64.652 Y77.672 E10.9496
G1 X66.705 Y78.107 E11.135
G0 F600 X65.945 Y80.478
G1 F900 X64.201 Y80.169 E11.29148
G1 X62.665 Y81.055 E11.44814
G1 X62.061 Y82.719 E11.60454
G1 X62.665 Y84.384 E11.76101
G1 X64.201 Y85.27 E11.91767
G1 X65.945 Y84.961 E12.07415
G1 X67.083 Y83.605 E12.23055
G1 X67.083 Y81.834 E12.38701
G1 X65.945 Y80.478 E12.54341
G0 F600 X68.037 Y79.662
G1 F900 X66.581 Y78.602 E12.70252
G1 X68.58 Y80.601 E12.95228
G0 F600 X66.197 Y80.04
G1 F900 X67.557 Y81.66 E13.13915
G1 X67.557 Y81.699 E13.14259
G1 X69.155 Y83.297 E13.34225
G1 X68.982 Y83.831 E13.39184
G1 X67.557 Y82.406 E13.56988
G1 X67.557 Y83.114 E13.63243
G1 X68.809 Y84.365 E13.7888
G1 X68.635 Y84.898 E13.83833
G1 X67.537 Y83.8 E13.97552
G1 X67.214 Y84.185 E14.01992
G1 X68.331 Y85.301 E14.15941
G1 X67.996 Y85.673 E14.20364
G1 X66.892 Y84.569 E14.34158
G1 X66.569 Y84.953 E14.38591
G1 X67.661 Y86.046 E14.52241
G1 X67.332 Y86.411 E14.56582
G0 F600 X67.322 Y86.414
G1 F900 X66.246 Y85.338 E14.70026
G1 X66.197 Y85.397 E14.70703
G1 X65.688 Y85.487 E14.7527
G1 X66.833 Y86.632 E14.89576
G1 X66.344 Y86.85 E14.94306
G1 X65.088 Y85.594 E15.09999
G1 X64.488 Y85.701 E15.15383
G1 X65.854 Y87.068 E15.32456
G1 X65.599 Y87.182 E15.34924
G1 X65.261 Y87.182 E15.3791
G1 X63.483 Y85.403 E15.60131
G0 F600 X62.277 Y84.707
G1 F900 X61.987 Y83.907 E15.67649
G1 X60.226 Y82.146 E15.89651
G1 X60.157 Y82.785 E15.95329
G1 X64.553 Y87.181 E16.50254
G1 X63.846 Y87.181 E16.565
G1 X60.237 Y83.572 E17.01592
G1 X60.576 Y84.618 E17.11306
G1 X62.693 Y86.735 E17.37756
G1 X61.968 Y86.412 E17.44768
G1 X60.7 Y85.002 E17.61521
G0 F600 X61.987 Y83.907
G1 F900 X61.584 Y82.797 E17.71954
G1 X60.295 Y81.508 E17.88059
G1 X60.319 Y81.294 E17.89962
G1 X60.49 Y80.996 E17.92997
G1 X61.731 Y82.237 E18.08502
G1 X61.919 Y81.718 E18.13379
G1 X60.749 Y80.548 E18.27997
G1 X61.008 Y80.1 E18.32569
G1 X62.107 Y81.199 E18.463
G1 X62.277 Y80.729 E18.50716
G1 X62.319 Y80.704 E18.51148
G1 X61.271 Y79.656 E18.64242
G1 X61.681 Y79.359 E18.68714
G1 X62.768 Y80.446 E18.82296
G1 X63.216 Y80.187 E18.86867
G1 X62.091 Y79.061 E19.0093
G1 X62.5 Y78.763 E19.054
G1 X63.665 Y79.928 E19.19956
G1 X64.114 Y79.67 E19.24531
G1 X62.96 Y78.516 E19.38949
G1 X63.543 Y78.392 E19.44215
G1 X64.973 Y79.822 E19.62082
G1 X65.833 Y79.975 E19.69799
G1 X64.126 Y78.268 E19.91127
G1 X64.651 Y78.157 E19.95867
G1 X64.741 Y78.176 E19.9668
G1 X69.118 Y82.554 E20.51373
G1 X69.036 Y81.764 E20.5839
G1 X65.637 Y78.365 E21.00858
G1 X66.509 Y78.549 E21.08732
G1 X66.581 Y78.602 E21.09521
G1 F600 E19.34521
G1 F480 Z1.425
G0 F600 X66.581 Y78.602 Z1.425
G0 X77.858 Y89.657
;TYPE:WALL-INNER
G1 F480 Z0.425
G1 F600 E21.09521
G1 F900 X77.998 Y89.698 E21.1081
G1 X78.078 Y89.744 E21.11626
G1 X78.134 Y89.789 E21.1226
G1 X78.186 Y89.845 E21.12935
G1 X78.233 Y89.915 E21.1368
G1 X78.267 Y89.985 E21.14368
G1 X78.29 Y90.056 E21.15027
G1 X78.3 Y90.126 E21.15652
G1 X78.3 Y90.214 E21.16429
G1 X78.29 Y90.284 E21.17054
G1 X78.267 Y90.355 E21.17713
G1 X78.233 Y90.425 E21.18401
G1 X78.186 Y90.495 E21.19146
G1 X78.134 Y90.551 E21.19821
G1 X78.078 Y90.596 E21.20456
G1 X77.998 Y90.642 E21.21271
G1 X77.944 Y90.663 E21.21783
G1 X77.858 Y90.683 E21.22563
G1 X77.783 Y90.688 E21.23227
G1 X77.709 Y90.683 E21.23882
G1 X77.626 Y90.664 E21.24634
G1 X77.557 Y90.637 E21.25289
G1 X77.496 Y90.601 E21.25915
G1 X77.431 Y90.549 E21.2665
G1 X77.378 Y90.493 E21.27331
G1 X77.336 Y90.431 E21.27993
G1 X77.3 Y90.355 E21.28736
G1 X77.277 Y90.284 E21.29395
G1 X77.267 Y90.214 E21.3002
G1 X77.267 Y90.126 E21.30798
G1 X77.277 Y90.056 E21.31422
G1 X77.3 Y89.985 E21.32082
G1 X77.337 Y89.908 E21.32836
G1 X77.379 Y89.846 E21.33498
G1 X77.431 Y89.791 E21.34167
G1 X77.496 Y89.739 E21.34902
G1 X77.557 Y89.703 E21.35528
G1 X77.626 Y89.676 E21.36182
G1 X77.709 Y89.657 E21.36935
G1 X77.783 Y89.652 E21.3759
G1 X77.858 Y89.657 E21.38254
G0 F600 X77.933 Y89.161
;TYPE:WALL-OUTER
G1 F900 X78.087 Y89.196 E21.39649
G1 X78.22 Y89.249 E21.40914
G1 X78.362 Y89.331 E21.42363
G1 X78.476 Y89.422 E21.43651
G1 X78.577 Y89.531 E21.44964
G1 X78.667 Y89.663 E21.46376
G1 X78.732 Y89.797 E21.47692
G1 X78.778 Y89.945 E21.49061
G1 X78.8 Y90.092 E21.50374
G1 X78.8 Y90.248 E21.51752
G1 X78.778 Y90.395 E21.53065
G1 X78.732 Y90.543 E21.54435
G1 X78.667 Y90.677 E21.5575
G1 X78.577 Y90.809 E21.57162
G1 X78.476 Y90.918 E21.58475
G1 X78.362 Y91.009 E21.59763
G1 X78.22 Y91.091 E21.61212
G1 X78.087 Y91.144 E21.62477
G1 X77.933 Y91.179 E21.63872
G1 X77.783 Y91.19 E21.65201
G1 X77.634 Y91.179 E21.66521
G1 X77.48 Y91.144 E21.67916
G1 X77.341 Y91.089 E21.69237
G1 X77.21 Y91.013 E21.70575
G1 X77.094 Y90.92 E21.71888
G1 X76.984 Y90.803 E21.73307
G1 X76.902 Y90.681 E21.74606
G1 X76.835 Y90.543 E21.75961
G1 X76.789 Y90.395 E21.7733
G1 X76.767 Y90.248 E21.78643
G1 X76.767 Y90.092 E21.80022
G1 X76.789 Y89.945 E21.81335
G1 X76.835 Y89.797 E21.82704
G1 X76.902 Y89.659 E21.84059
G1 X76.986 Y89.535 E21.85383
G1 X77.094 Y89.42 E21.86776
G1 X77.21 Y89.327 E21.8809
G1 X77.341 Y89.251 E21.89428
G1 X77.48 Y89.196 E21.90749
G1 X77.634 Y89.161 E21.92144
G1 X77.783 Y89.15 E21.93464
G1 X77.933 Y89.161 E21.94793
G0 F600 X78.087 Y89.196
G0 X78.173 Y89.23
G0 X77.8 Y90.151
;TYPE:SKIN
G1 F900 X77.81 Y90.166 E21.94952
G1 X77.791 Y90.195 E21.95258
G1 X77.77 Y90.194 E21.95444
G1 X77.759 Y90.182 E21.95588
G1 X77.762 Y90.155 E21.95828
G1 X77.77 Y90.146 E21.95934
G1 X77.8 Y90.151 E21.96203
G0 F600 X77.79 Y90.16
G1 F600 E20.21203
G1 F480 Z1.425
G0 F600 X77.79 Y90.16 Z1.425
G0 X81.065 Y84.049
;TYPE:WALL-INNER
G1 F480 Z0.425
G1 F600 E21.96203
G1 F900 X82.291 Y84.756 E22.08706
G1 X83.684 Y84.51 E22.21203
G1 X84.593 Y83.427 E22.33695
G1 X84.593 Y82.012 E22.46196
G1 X83.684 Y80.929 E22.58688
G1 X82.291 Y80.683 E22.71185
G1 X81.065 Y81.39 E22.83688
G1 X80.582 Y82.719 E22.96181
G1 X81.065 Y84.049 E23.08682
G0 F600 X80.989 Y84.113
G0 X80.542 Y82.719
G0 X81.035 Y81.365
G0 X84.838 Y77.735
G0 X84.864 Y77.639
G1 F900 X84.92 Y77.658 E23.09204
G1 X86.736 Y78.978 E23.29039
G1 X86.78 Y79.018 E23.29564
G1 X87.91 Y80.974 E23.49521
G1 X87.929 Y81.019 E23.49953
G1 X88.164 Y83.26 E23.6986
G1 X88.164 Y83.316 E23.70355
G1 X87.471 Y85.448 E23.9016
G1 X87.446 Y85.504 E23.90702
G1 X85.94 Y87.178 E24.10596
G1 X85.899 Y87.215 E24.11084
G1 X83.847 Y88.128 E24.30926
G1 X83.787 Y88.148 E24.31485
G1 X81.542 Y88.147 E24.51319
G1 X81.478 Y88.141 E24.51886
G1 X79.429 Y87.229 E24.71701
G1 X79.379 Y87.2 E24.72212
G1 X77.872 Y85.524 E24.92124
G1 X77.84 Y85.48 E24.92605
G1 X77.132 Y83.287 E25.12964
G1 X77.379 Y80.993 E25.33348
G1 X78.506 Y79.04 E25.53269
G1 X78.536 Y78.998 E25.53725
G1 X80.364 Y77.671 E25.73682
G1 X80.406 Y77.646 E25.74113
G1 X82.611 Y77.179 E25.94026
G1 X82.664 Y77.173 E25.94497
G1 X84.864 Y77.639 E26.14365
G0 F600 X84.995 Y77.156
;TYPE:WALL-OUTER
G1 F900 X85.15 Y77.207 E26.15806
G1 X87.053 Y78.591 E26.36595
G1 X87.173 Y78.698 E26.38015
G1 X88.355 Y80.746 E26.58906
G1 X88.418 Y80.886 E26.60263
G1 X88.664 Y83.235 E26.81129
G1 X88.665 Y83.393 E26.82525
G1 X87.936 Y85.635 E27.03353
G1 X87.871 Y85.779 E27.04749
G1 X86.294 Y87.532 E27.25581
G1 X86.174 Y87.64 E27.27007
G1 X84.028 Y88.595 E27.47759
G1 X83.867 Y88.648 E27.49256
G1 X81.515 Y88.647 E27.70036
G1 X81.35 Y88.631 E27.715
G1 X79.202 Y87.675 E27.92272
G1 X79.06 Y87.593 E27.9372
G1 X77.483 Y85.839 E28.14559
G1 X77.389 Y85.711 E28.15962
G1 X76.659 Y83.465 E28.36826
G1 X76.627 Y83.314 E28.3819
G1 X76.875 Y80.964 E28.59067
G1 X76.907 Y80.811 E28.60448
G1 X78.087 Y78.765 E28.81315
G1 X78.179 Y78.639 E28.82693
G1 X80.084 Y77.256 E29.03491
G1 X80.224 Y77.174 E29.04924
G1 X82.531 Y76.685 E29.25759
G1 X82.69 Y76.668 E29.27171
G1 X84.995 Y77.156 E29.47987
G0 F600 X85.15 Y77.207
G0 X85.22 Y77.258
G0 X84.875 Y77.746
G0 X81.035 Y81.365
G0 X80.542 Y82.719
G0 X80.985 Y83.938
G0 X81.173 Y84.225
G0 X81.473 Y83.707
G1 F900 X82.383 Y84.232 E29.57268
G1 X83.418 Y84.049 E29.66554
G1 X84.093 Y83.245 E29.75829
G1 X84.093 Y82.194 E29.85114
G1 X83.418 Y81.39 E29.94388
G1 X82.383 Y81.207 E30.03674
G1 X81.473 Y81.732 E30.12956
G1 X81.114 Y82.719 E30.22235
G1 X81.473 Y83.707 E30.31522
G0 F600 X81.689 Y83.832
G0 X81.39 Y84.35
G0 X80.665 Y84.384
;TYPE:SKIN
G1 F900 X82.201 Y85.27 E30.47188
G1 X83.945 Y84.961 E30.62835
G1 X85.083 Y83.605 E30.78475
G1 X85.083 Y81.834 E30.94121
G1 X83.945 Y80.478 E31.09761
G1 X82.201 Y80.169 E31.25409
G1 X80.665 Y81.055 E31.41075
G1 X80.061 Y82.719 E31.56714
G1 X80.665 Y84.384 E31.72362
G0 F600 X79.683 Y86.806
G1 F900 X78.279 Y85.245 E31.9091
G1 X77.631 Y83.239 E32.09535
G1 X77.857 Y81.147 E32.28124
G1 X78.9 Y79.339 E32.46565
G1 X80.597 Y78.108 E32.65087
G1 X82.652 Y77.672 E32.83646
G1 X84.705 Y78.107 E33.02186
G1 X86.401 Y79.34 E33.20711
G1 X87.45 Y81.157 E33.39247
G1 X87.67 Y83.252 E33.57858
G1 X87.024 Y85.241 E33.76334
G1 X85.617 Y86.805 E33.9492
G1 X83.699 Y87.658 E34.13465
G1 X81.594 Y87.657 E34.32062
G1 X79.683 Y86.806 E34.50543
G0 F600 X79.968 Y86.412
G1 F900 X80.113 Y86.477 E34.51947
G1 X79.252 Y85.616 E34.62705
G0 F600 X80.113 Y86.477
G1 F900 X81.387 Y87.044 E34.75025
G1 X78.391 Y84.048 E35.12457
G1 X78.114 Y83.19 E35.20423
G1 X78.126 Y83.076 E35.21435
G1 X82.231 Y87.181 E35.72724
G1 X82.939 Y87.182 E35.78979
G1 X80.721 Y84.964 E36.06691
G1 X82.114 Y85.767 E36.20896
G1 X82.213 Y85.749 E36.21785
G1 X83.632 Y87.167 E36.39508
G1 X84.121 Y86.95 E36.44235
G1 X82.814 Y85.643 E36.60564
G1 X83.415 Y85.536 E36.65958
G1 X84.61 Y86.732 E36.80894
G1 X85.1 Y86.514 E36.85633
G1 X84.015 Y85.429 E36.99189
G1 X84.198 Y85.397 E37.0083
G1 X84.422 Y85.129 E37.03916
G1 X85.509 Y86.216 E37.17497
G1 X85.843 Y85.843 E37.2192
G1 X84.744 Y84.744 E37.35652
G1 X85.067 Y84.36 E37.40085
G1 X86.178 Y85.471 E37.53966
G1 X86.513 Y85.098 E37.58395
G1 X85.39 Y83.976 E37.7242
G1 X85.557 Y83.778 E37.74708
G1 X85.557 Y83.435 E37.77738
G1 X86.729 Y84.608 E37.92388
G1 X86.903 Y84.074 E37.9735
G1 X85.557 Y82.728 E38.14167
G1 X85.557 Y82.021 E38.20413
G1 X87.076 Y83.541 E38.39398
G1 X87.186 Y83.202 E38.42547
G1 X87.156 Y82.913 E38.45114
G1 X82.444 Y78.201 E39.03986
G1 X82.65 Y78.157 E39.05847
G1 X83.23 Y78.28 E39.11085
G1 X87.073 Y82.124 E39.59107
G1 X86.99 Y81.333 E39.66133
G1 X84.128 Y78.471 E40.01892
G1 X84.507 Y78.551 E40.05314
G1 X86.001 Y79.637 E40.21632
G1 X86.037 Y79.663 E40.22024
G0 F600 X84.197 Y80.04
G1 F900 X85.557 Y81.66 E40.40711
G1 X85.557 Y82.021 E40.439
G0 F600 X83.442 Y79.906
G1 F900 X81.861 Y78.325 E40.63654
G1 X81.278 Y78.449 E40.6892
G1 X82.582 Y79.753 E40.85212
G1 X82.113 Y79.671 E40.89418
G1 X81.909 Y79.788 E40.91496
G1 X80.723 Y78.601 E41.0632
G1 X80.313 Y78.899 E41.10798
G1 X81.46 Y80.046 E41.25129
G1 X81.012 Y80.305 E41.29701
G1 X79.903 Y79.196 E41.43557
G1 X79.494 Y79.494 E41.48028
G1 X80.563 Y80.563 E41.61384
G1 X80.277 Y80.729 E41.64305
G1 X80.209 Y80.917 E41.66072
M104 S205
G1 X79.149 Y79.856 E41.79322
G1 X78.89 Y80.304 E41.83894
G1 X80.021 Y81.435 E41.98025
G1 X79.833 Y81.954 E42.02901
G1 X78.63 Y80.752 E42.17926
G1 X78.372 Y81.2 E42.22493
G1 X79.644 Y82.473 E42.38392
G1 X79.555 Y82.718 E42.40695
G1 X79.768 Y83.304 E42.46203
G1 X78.263 Y81.799 E42.65007
G1 X78.195 Y82.438 E42.70684
G1 X80.17 Y84.412 E42.95354
G1 X80.277 Y84.707 E42.98126
G1 F600 E41.23126
G1 F480 Z1.425
;MESH:NONMESH
G0 F600 X80.277 Y84.707 Z1.425
G0 X66.622 Y77.636
;TIME_ELAPSED:57.019727
;LAYER:1
M140 S60
M221 S100 T0
M106 S255
;MESH:
G0 F1500 X66.622 Y77.636 Z1.605
;TYPE:WALL-INNER
G1 F480 Z0.605
G1 F600 E42.98126
G1 F1200 X66.964 Y77.748 E42.99473
G1 X68.514 Y78.874 E43.06642
G1 X68.784 Y79.117 E43.08001
G1 X69.748 Y80.787 E43.15216
G1 X69.891 Y81.11 E43.16538
G1 X70.092 Y83.024 E43.23739
G1 X70.093 Y83.381 E43.25074
G1 X69.498 Y85.215 E43.32289
G1 X69.353 Y85.537 E43.3361
G1 X68.066 Y86.968 E43.40812
