;Generated by Cura LulzBot Edition GCodeWriter Version: 3.6.37
;FLAVOR:Marlin
;TIME:555
;Filament used: 0.219863m
;Layer height: 0.18
;Generated with Cura_SteamEngine 3.6.37-win10
M82 ;absolute extrusion mode
;This G-Code has been generated specifically for the LulzBot Sidekick with a Universal Tool Head
;
;The following lines can be uncommented for printer specific fine tuning
;More information can be found at https://marlinfw.org/meta/gcode/ (Note: current values are based on SE Tool Head)
;
;M92 E420                 ;Set Axis Steps-per-unit
;M301 P21.0 I1.78 D61.93  ;Set Hotend PID
;M906 E960                ;TMC Motor Current
;
G90                       ; absolute coordinate
M82                       ; set extruder to absolute mode
G92 E0                    ; set extruder position to 0
M117 Heating...           ; progress indicator message on LCD
M140 S60.0   ; start bed heating up
M109 R140        ; soften filament before homing Z
G28                       ; Home all axis
G1 E-15 F100              ; retract filament
M104 S140         ; start extruder heating to probe temp
M190 S60.0   ; wait for bed to reach printing temp
G29                                        ; start auto leveling
G0 X0 Y0 F5000
M109 R210 ; wait for extruder to reach initial printing temp
M117 SideKick Printing...                  ; progress indicator message on LCD
G1 Z2 E0 F75                               ; prime tiny bit of filament into the nozzle
M221 S100 T0
G92 E0
G1 F600 E-1.75
;LAYER_COUNT:66
;LAYER:0
M107
G0 F600 X77.774 Y78.568 Z0.425
;TYPE:SKIRT
G1 F600 E0
G1 F900 X79.069 Y77.404 E0.15383
G1 X79.577 Y77.002 E0.21107
G1 X80.13 Y76.665 E0.26828
G1 X80.721 Y76.399 E0.32554
G1 X81.34 Y76.207 E0.3828
G1 X81.87 Y76.107 E0.43045
G1 X82.024 Y76.086 E0.44418
G1 X82.67 Y76.038 E0.50141
G1 X83.317 Y76.071 E0.55864
G1 X83.955 Y76.182 E0.61585
G1 X84.574 Y76.371 E0.67303
G1 X85.076 Y76.59 E0.72142
G1 X85.828 Y76.965 E0.79566
G1 X86.389 Y77.289 E0.85289
G1 X86.905 Y77.68 E0.91009
G1 X87.37 Y78.131 E0.96732
G1 X87.775 Y78.637 E1.02458
G1 X88.16 Y79.273 E1.09026
G1 X88.615 Y80.163 E1.17857
G1 X88.873 Y80.757 E1.23579
G1 X89.057 Y81.378 E1.29301
G1 X89.163 Y82.017 E1.35023
G1 X89.189 Y82.665 E1.40753
G1 X89.127 Y83.367 E1.46979
G1 X89.103 Y83.52 E1.48347
G1 X88.963 Y84.152 E1.54066
G1 X88.746 Y84.763 E1.59794
G1 X88.456 Y85.342 E1.65515
G1 X88.097 Y85.881 E1.71237
G1 X87.606 Y86.44 E1.7781
G1 X87.177 Y86.864 E1.83139
G1 X86.69 Y87.29 E1.88855
G1 X86.153 Y87.653 E1.94582
G1 X85.576 Y87.947 E2.00303
G1 X84.967 Y88.167 E2.06024
G1 X84.596 Y88.261 E2.09405
G1 X83.717 Y88.451 E2.1735
G1 X83.077 Y88.549 E2.2307
G1 X82.429 Y88.567 E2.28797
G1 X81.785 Y88.505 E2.34513
G1 X81.152 Y88.364 E2.40243
G1 X80.452 Y88.107 E2.4683
G1 X79.169 Y87.529 E2.59263
G1 X78.596 Y87.227 E2.64985
G1 X78.064 Y86.856 E2.70715
G1 X77.582 Y86.424 E2.76433
G1 X77.157 Y85.935 E2.82157
G1 X76.796 Y85.397 E2.87881
G1 X76.503 Y84.819 E2.93606
G1 X76.284 Y84.209 E2.99332
G1 X76.135 Y83.533 E3.05448
G1 X76.094 Y83.264 E3.07852
G1 X76.036 Y82.619 E3.13573
G1 X76.058 Y81.971 E3.19301
G1 X76.16 Y81.332 E3.25018
G1 X76.339 Y80.709 E3.30745
G1 X76.594 Y80.114 E3.36464
G1 X76.92 Y79.554 E3.42189
G1 X77.313 Y79.039 E3.47912
G1 X77.774 Y78.568 E3.53735
G0 F600 X78.109 Y78.94
G1 F900 X79.404 Y77.776 E3.69118
G1 X79.888 Y77.395 E3.7456
G1 X80.417 Y77.08 E3.79999
G1 X80.983 Y76.835 E3.85448
G1 X81.575 Y76.666 E3.90887
G1 X81.937 Y76.603 E3.94134
G1 X82.091 Y76.582 E3.95507
G1 X82.706 Y76.538 E4.00954
G1 X83.321 Y76.575 E4.06397
G1 X83.926 Y76.69 E4.11838
G1 X84.511 Y76.883 E4.1728
G1 X84.853 Y77.037 E4.20594
G1 X85.605 Y77.412 E4.28018
G1 X86.137 Y77.722 E4.33458
G1 X86.625 Y78.099 E4.38906
G1 X87.06 Y78.535 E4.44347
G1 X87.435 Y79.024 E4.49791
G1 X87.714 Y79.501 E4.54673
G1 X88.169 Y80.391 E4.63504
G1 X88.414 Y80.956 E4.68945
G1 X88.583 Y81.549 E4.74392
G1 X88.674 Y82.158 E4.79832
G1 X88.685 Y82.774 E4.85276
G1 X88.633 Y83.289 E4.89849
G1 X88.609 Y83.442 E4.91217
G1 X88.474 Y84.043 E4.96659
G1 X88.262 Y84.622 E5.02106
G1 X87.978 Y85.168 E5.07543
G1 X87.625 Y85.674 E5.12994
G1 X87.255 Y86.084 E5.17873
G1 X86.826 Y86.508 E5.23202
G1 X86.361 Y86.912 E5.28644
G1 X85.847 Y87.252 E5.34089
G1 X85.293 Y87.523 E5.39538
G1 X84.491 Y87.773 E5.46959
G1 X83.612 Y87.963 E5.54904
G1 X83.002 Y88.054 E5.60353
G1 X82.386 Y88.065 E5.65796
G1 X81.774 Y87.996 E5.71237
G1 X81.176 Y87.849 E5.76678
G1 X80.657 Y87.651 E5.81585
G1 X79.374 Y87.073 E5.94017
G1 X78.83 Y86.784 E5.9946
G1 X78.328 Y86.427 E6.04902
G1 X77.876 Y86.008 E6.10347
G1 X77.482 Y85.534 E6.15792
G1 X77.153 Y85.013 E6.21236
G1 X76.894 Y84.454 E6.26679
G1 X76.71 Y83.866 E6.32122
G1 X76.629 Y83.458 E6.35797
G1 X76.588 Y83.189 E6.38201
G1 X76.535 Y82.575 E6.43646
G1 X76.562 Y81.959 E6.49093
G1 X76.668 Y81.352 E6.54537
G1 X76.852 Y80.764 E6.5998
G1 X77.11 Y80.205 E6.6542
G1 X77.439 Y79.684 E6.70863
G1 X77.832 Y79.21 E6.76303
G1 X78.109 Y78.94 E6.79721
G0 F600 X78.443 Y79.312
G1 F900 X79.738 Y78.148 E6.95104
G1 X80.197 Y77.789 E7.00252
G1 X80.701 Y77.496 E7.05403
G1 X81.24 Y77.275 E7.10549
G1 X82.005 Y77.098 E7.17486
G1 X82.159 Y77.077 E7.1886
G1 X82.74 Y77.038 E7.24004
G1 X83.322 Y77.079 E7.29159
G1 X83.892 Y77.199 E7.34305
G1 X84.63 Y77.485 E7.41297
G1 X85.382 Y77.86 E7.48721
G1 X85.884 Y78.155 E7.53865
G1 X86.341 Y78.516 E7.59011
G1 X86.745 Y78.936 E7.64159
G1 X87.087 Y79.408 E7.69309
G1 X87.269 Y79.728 E7.72561
G1 X87.724 Y80.618 E7.81392
G1 X87.953 Y81.154 E7.86542
G1 X88.107 Y81.716 E7.9169
G1 X88.182 Y82.294 E7.96839
G1 X88.178 Y82.877 E8.0199
G1 X88.139 Y83.212 E8.04969
G1 X88.115 Y83.365 E8.06338
G1 X87.985 Y83.933 E8.11485
G1 X87.779 Y84.478 E8.16633
G1 X87.5 Y84.99 E8.21784
G1 X87.154 Y85.459 E8.26933
G1 X86.904 Y85.729 E8.30184
G1 X86.475 Y86.153 E8.35513
G1 X86.033 Y86.533 E8.40663
G1 X85.543 Y86.849 E8.45814
G1 X85.015 Y87.096 E8.50964
G1 X84.385 Y87.284 E8.56772
G1 X83.506 Y87.474 E8.64717
G1 X82.929 Y87.558 E8.69869
G1 X82.346 Y87.562 E8.75019
G1 X81.769 Y87.486 E8.80161
G1 X81.207 Y87.332 E8.85309
G1 X80.862 Y87.195 E8.88589
G1 X79.579 Y86.617 E9.01021
G1 X79.066 Y86.342 E9.06163
G1 X78.594 Y85.999 E9.11318
G1 X78.175 Y85.595 E9.1646
G1 X77.814 Y85.137 E9.21612
G1 X77.519 Y84.634 E9.26764
G1 X77.296 Y84.096 E9.31909
G1 X77.124 Y83.382 E9.38398
G1 X77.083 Y83.113 E9.40802
G1 X77.034 Y82.533 E9.45944
G1 X77.066 Y81.951 E9.51094
G1 X77.177 Y81.379 E9.56241
G1 X77.366 Y80.827 E9.61396
G1 X77.628 Y80.307 E9.6654
G1 X77.958 Y79.827 E9.71686
G1 X78.443 Y79.312 E9.77936
G0 F600 X78.777 Y79.684
G1 F900 X80.072 Y78.52 E9.9332
G1 X80.505 Y78.185 E9.98156
G1 X80.982 Y77.916 E10.02995
G1 X81.493 Y77.72 E10.0783
G1 X82.072 Y77.593 E10.13067
G1 X82.226 Y77.572 E10.1444
G1 X82.773 Y77.538 E10.19282
G1 X83.318 Y77.584 E10.24114
G1 X83.851 Y77.709 E10.2895
G1 X84.406 Y77.932 E10.34235
G1 X85.158 Y78.307 E10.41659
G1 X85.629 Y78.586 E10.46495
G1 X86.054 Y78.931 E10.51331
G1 X86.424 Y79.334 E10.56165
G1 X86.824 Y79.956 E10.62698
G1 X87.279 Y80.846 E10.71529
G1 X87.492 Y81.35 E10.76363
G1 X87.629 Y81.88 E10.81199
G1 X87.688 Y82.424 E10.86034
G1 X87.645 Y83.134 E10.92318
G1 X87.621 Y83.287 E10.93686
G1 X87.497 Y83.82 E10.98521
G1 X87.296 Y84.33 E11.03364
G1 X87.024 Y84.804 E11.08192
G1 X86.552 Y85.373 E11.14723
G1 X86.123 Y85.797 E11.20052
G1 X85.707 Y86.152 E11.24884
G1 X85.243 Y86.443 E11.29722
G1 X84.742 Y86.664 E11.3456
G1 X84.279 Y86.795 E11.38811
G1 X83.4 Y86.985 E11.46756
G1 X82.858 Y87.062 E11.51593
G1 X82.311 Y87.058 E11.56425
G1 X81.77 Y86.975 E11.61261
G1 X81.068 Y86.739 E11.67804
G1 X79.785 Y86.161 E11.80236
G1 X79.303 Y85.9 E11.85079
G1 X78.865 Y85.572 E11.89913
G1 X78.479 Y85.184 E11.94748
G1 X78.154 Y84.744 E11.99581
G1 X77.896 Y84.261 E12.04419
G1 X77.712 Y83.746 E12.0925
G1 X77.618 Y83.307 E12.13217
G1 X77.577 Y83.038 E12.15621
G1 X77.534 Y82.492 E12.20459
G1 X77.571 Y81.946 E12.25294
G1 X77.687 Y81.411 E12.30131
G1 X77.88 Y80.899 E12.34965
G1 X78.146 Y80.42 E12.39805
G1 X78.478 Y79.985 E12.4464
G1 X78.777 Y79.684 E12.48388
G0 F600 X79.111 Y80.056
G1 F900 X80.406 Y78.892 E12.63771
G1 X80.811 Y78.582 E12.68277
G1 X81.259 Y78.339 E12.7278
G1 X81.739 Y78.169 E12.77279
G1 X82.14 Y78.089 E12.80891
G1 X82.294 Y78.068 E12.82265
G1 X82.803 Y78.039 E12.86769
G1 X83.31 Y78.09 E12.9127
G1 X83.802 Y78.219 E12.95764
G1 X84.183 Y78.38 E12.99418
G1 X84.935 Y78.755 E13.06842
G1 X85.372 Y79.017 E13.11344
G1 X85.762 Y79.344 E13.1584
G1 X86.097 Y79.729 E13.20349
G1 X86.379 Y80.184 E13.25078
G1 X86.834 Y81.074 E13.33909
G1 X87.029 Y81.544 E13.38405
G1 X87.149 Y82.039 E13.42904
G1 X87.19 Y82.547 E13.47407
G1 X87.151 Y83.057 E13.51926
G1 X87.127 Y83.21 E13.53294
G1 X87.009 Y83.705 E13.5779
G1 X86.814 Y84.176 E13.62294
G1 X86.549 Y84.611 E13.66794
G1 X86.201 Y85.018 E13.71525
G1 X85.772 Y85.442 E13.76853
G1 X85.382 Y85.77 E13.81356
G1 X84.946 Y86.034 E13.85859
G1 X84.475 Y86.226 E13.90352
G1 X84.174 Y86.307 E13.93106
G1 X83.295 Y86.497 E14.01051
G1 X82.79 Y86.565 E14.05553
G1 X82.28 Y86.553 E14.1006
G1 X81.779 Y86.462 E14.14558
G1 X81.273 Y86.283 E14.193
G1 X79.99 Y85.705 E14.31732
G1 X79.543 Y85.46 E14.36236
G1 X79.14 Y85.148 E14.40739
G1 X78.791 Y84.777 E14.45239
G1 X78.504 Y84.356 E14.4974
G1 X78.287 Y83.896 E14.54233
G1 X78.112 Y83.232 E14.603
G1 X78.071 Y82.963 E14.62704
G1 X78.034 Y82.455 E14.67204
G1 X78.077 Y81.947 E14.71708
G1 X78.199 Y81.452 E14.76212
G1 X78.396 Y80.982 E14.80714
G1 X78.664 Y80.549 E14.85213
G1 X79.111 Y80.056 E14.91093
G0 F600 X79.446 Y80.428
G1 F900 X80.741 Y79.264 E15.06476
G1 X81.115 Y78.981 E15.1062
G1 X81.531 Y78.766 E15.14757
G1 X82.207 Y78.584 E15.20942
G1 X82.361 Y78.563 E15.22315
G1 X82.829 Y78.54 E15.26454
G1 X83.295 Y78.596 E15.30601
G1 X83.744 Y78.73 E15.34741
G1 X83.96 Y78.827 E15.36832
G1 X84.712 Y79.202 E15.44256
G1 X85.112 Y79.446 E15.48396
G1 X85.465 Y79.755 E15.52541
G1 X85.76 Y80.118 E15.56673
G1 X85.934 Y80.411 E15.59684
G1 X86.389 Y81.301 E15.68515
G1 X86.566 Y81.735 E15.72655
G1 X86.666 Y82.193 E15.76797
G1 X86.688 Y82.661 E15.80936
G1 X86.657 Y82.979 E15.83759
G1 X86.633 Y83.132 E15.85127
G1 X86.521 Y83.587 E15.89267
G1 X86.334 Y84.017 E15.9341
G1 X86.076 Y84.408 E15.97548
G1 X85.849 Y84.662 E16.00558
G1 X85.42 Y85.086 E16.05887
G1 X85.06 Y85.386 E16.10027
G1 X84.654 Y85.62 E16.14167
G1 X84.068 Y85.818 E16.19632
G1 X83.189 Y86.008 E16.27577
G1 X82.724 Y86.068 E16.31719
G1 X82.256 Y86.047 E16.35858
G1 X81.798 Y85.948 E16.39997
G1 X81.478 Y85.827 E16.4302
G1 X80.195 Y85.249 E16.55452
G1 X79.786 Y85.021 E16.59589
G1 X79.422 Y84.727 E16.63723
G1 X79.112 Y84.375 E16.67867
G1 X78.867 Y83.975 E16.72011
G1 X78.693 Y83.54 E16.7615
G1 X78.606 Y83.156 E16.79628
G1 X78.565 Y82.887 E16.82032
G1 X78.535 Y82.42 E16.86167
G1 X78.583 Y81.954 E16.90305
G1 X78.711 Y81.503 E16.94447
G1 X78.913 Y81.08 E16.98589
G1 X79.184 Y80.698 E17.02726
G1 X79.446 Y80.428 E17.0605
G0 F600 X79.78 Y80.8
G1 F900 X81.075 Y79.636 E17.21434
G1 X81.415 Y79.383 E17.25178
G1 X81.797 Y79.199 E17.28924
G1 X82.275 Y79.08 E17.33276
G1 X82.429 Y79.059 E17.34649
G1 X82.852 Y79.041 E17.38389
G1 X83.272 Y79.103 E17.4214
G1 X83.737 Y79.274 E17.46517
G1 X84.489 Y79.649 E17.53941
G1 X84.849 Y79.873 E17.57687
G1 X85.16 Y80.161 E17.61432
G1 X85.488 Y80.639 E17.66553
G1 X85.943 Y81.529 E17.75384
G1 X86.1 Y81.923 E17.79131
G1 X86.18 Y82.339 E17.82874
G1 X86.163 Y82.902 E17.8785
G1 X86.139 Y83.055 E17.89218
G1 X86.034 Y83.465 E17.92958
G1 X85.854 Y83.849 E17.96704
G1 X85.498 Y84.306 E18.01822
G1 X85.069 Y84.73 E18.07151
G1 X84.741 Y84.998 E18.10893
G1 X84.368 Y85.2 E18.14641
G1 X83.962 Y85.329 E18.18404
G1 X83.083 Y85.519 E18.26349
G1 X82.663 Y85.569 E18.30086
G1 X82.24 Y85.54 E18.33832
G1 X81.684 Y85.371 E18.38966
G1 X80.401 Y84.793 E18.51398
G1 X80.033 Y84.584 E18.55137
G1 X79.71 Y84.309 E18.58885
G1 X79.445 Y83.978 E18.62631
G1 X79.247 Y83.604 E18.6637
G1 X79.101 Y83.081 E18.71167
G1 X79.06 Y82.812 E18.73571
G1 X79.036 Y82.389 E18.77314
G1 X79.091 Y81.969 E18.81056
G1 X79.225 Y81.567 E18.848
G1 X79.431 Y81.196 E18.88549
G1 X79.78 Y80.8 E18.93212
G0 F600 X80.114 Y81.171
G1 F900 X81.409 Y80.007 E19.08596
G1 X81.712 Y79.789 E19.11893
G1 X82.055 Y79.639 E19.15201
G1 X82.343 Y79.575 E19.17807
G1 X82.497 Y79.554 E19.1918
G1 X82.87 Y79.543 E19.22477
G1 X83.237 Y79.612 E19.25776
G1 X83.514 Y79.722 E19.28409
G1 X84.266 Y80.097 E19.35833
G1 X84.581 Y80.298 E19.39135
G1 X84.845 Y80.562 E19.42433
G1 X85.043 Y80.866 E19.45638
G1 X85.498 Y81.756 E19.54469
G1 X85.632 Y82.105 E19.57772
G1 X85.688 Y82.475 E19.61078
G1 X85.669 Y82.824 E19.64166
G1 X85.645 Y82.977 E19.65534
G1 X85.548 Y83.338 E19.68837
G1 X85.377 Y83.67 E19.72136
G1 X85.146 Y83.951 E19.7535
G1 X84.717 Y84.375 E19.80678
G1 X84.425 Y84.607 E19.83973
G1 X84.09 Y84.773 E19.87276
G1 X83.857 Y84.84 E19.89418
G1 X82.978 Y85.03 E19.97363
G1 X82.606 Y85.07 E20.00669
G1 X82.235 Y85.03 E20.03966
G1 X81.889 Y84.916 E20.07184
G1 X80.606 Y84.338 E20.19616
G1 X80.284 Y84.149 E20.22915
G1 X80.009 Y83.896 E20.26216
G1 X79.794 Y83.59 E20.2952
G1 X79.649 Y83.246 E20.32818
G1 X79.595 Y83.006 E20.34991
G1 X79.554 Y82.737 E20.37395
G1 X79.537 Y82.363 E20.40703
G1 X79.601 Y81.995 E20.44003
G1 X79.74 Y81.649 E20.47297
G1 X79.95 Y81.34 E20.50598
G1 X80.114 Y81.171 E20.52679
G0 F600 X80.448 Y81.543
G1 F900 X81.743 Y80.379 E20.68062
G1 X82.003 Y80.2 E20.70851
G1 X82.41 Y80.07 E20.74625
G1 X82.564 Y80.049 E20.75998
G1 X82.88 Y80.047 E20.7879
G1 X83.291 Y80.169 E20.82578
G1 X84.043 Y80.544 E20.90002
G1 X84.305 Y80.72 E20.9279
G1 X84.515 Y80.955 E20.95575
G1 X84.598 Y81.094 E20.97005
G1 X85.053 Y81.984 E21.05836
G1 X85.16 Y82.281 E21.08625
G1 X85.175 Y82.747 E21.12744
G1 X85.151 Y82.9 E21.14112
G1 X85.063 Y83.203 E21.169
G1 X84.902 Y83.474 E21.19685
G1 X84.795 Y83.595 E21.21112
G1 X84.366 Y84.019 E21.26441
G1 X84.115 Y84.211 E21.29232
G1 X83.751 Y84.352 E21.32681
G1 X82.872 Y84.542 E21.40626
G1 X82.558 Y84.569 E21.43411
G1 X82.246 Y84.517 E21.46205
G1 X82.095 Y84.46 E21.47631
G1 X80.812 Y83.882 E21.60063
G1 X80.542 Y83.717 E21.62859
G1 X80.323 Y83.49 E21.65645
G1 X80.168 Y83.215 E21.68434
G1 X80.089 Y82.93 E21.71047
G1 X80.048 Y82.661 E21.73451
G1 X80.04 Y82.346 E21.76235
G1 X80.112 Y82.038 E21.79029
G1 X80.258 Y81.759 E21.81811
G1 X80.448 Y81.543 E21.84353
G0 F600 X80.783 Y81.915
G1 F900 X82.078 Y80.751 E21.99736
G1 X82.283 Y80.62 E22.01885
G1 X82.478 Y80.566 E22.03673
G1 X82.632 Y80.545 E22.05046
G1 X82.876 Y80.552 E22.07203
G1 X83.068 Y80.617 E22.08994
G1 X83.82 Y80.992 E22.16417
G1 X84.018 Y81.135 E22.18575
G1 X84.153 Y81.322 E22.20613
G1 X84.608 Y82.212 E22.29444
G1 X84.682 Y82.444 E22.31595
G1 X84.681 Y82.669 E22.33583
G1 X84.657 Y82.822 E22.34951
G1 X84.58 Y83.054 E22.37111
G1 X84.443 Y83.239 E22.39145
G1 X84.014 Y83.663 E22.44473
G1 X83.815 Y83.804 E22.46628
G1 X83.645 Y83.863 E22.48218
G1 X82.766 Y84.053 E22.56163
G1 X82.523 Y84.065 E22.58312
G1 X82.3 Y84.004 E22.60355
G1 X81.017 Y83.426 E22.72787
G1 X80.814 Y83.291 E22.74941
G1 X80.665 Y83.097 E22.77102
G1 X80.584 Y82.855 E22.79357
G1 X80.543 Y82.586 E22.81761
G1 X80.546 Y82.342 E22.83916
G1 X80.627 Y82.112 E22.86071
G1 X80.783 Y81.915 E22.88291
G0 F600 X81.117 Y82.287
M104 S205
G1 F900 X82.412 Y81.123 E23.03674
G1 X82.545 Y81.061 E23.04971
G1 X82.699 Y81.04 E23.06344
G1 X82.845 Y81.064 E23.07651
G1 X83.597 Y81.439 E23.15075
G1 X83.708 Y81.549 E23.16456
G1 X84.163 Y82.439 E23.25286
G1 X84.187 Y82.592 E23.26655
G1 X84.163 Y82.745 E23.28023
G1 X84.092 Y82.884 E23.29402
G1 X83.663 Y83.308 E23.34731
G1 X83.54 Y83.374 E23.35964
G1 X82.661 Y83.564 E23.43909
G1 X82.505 Y83.548 E23.45294
G1 X81.222 Y82.97 E23.57727
G1 X81.116 Y82.879 E23.58961
G1 X81.078 Y82.78 E23.59898
G1 X81.037 Y82.511 E23.62302
G1 X81.055 Y82.372 E23.6354
G1 X81.117 Y82.287 E23.64469
;MESH:
G0 F600 X81.835 Y82.314
;TYPE:WALL-OUTER
G1 F900 X81.836 Y82.313 E23.64482
G1 X82.69 Y81.546 E23.74623
G1 X83.335 Y81.867 E23.80988
G1 X83.66 Y82.547 E23.87647
G1 X83.681 Y82.591 E23.88077
G1 X83.392 Y82.895 E23.91783
G1 X83.345 Y82.906 E23.92209
G1 X82.673 Y83.075 E23.98331
G1 X81.9 Y82.726 E24.05824
G1 X81.551 Y82.569 E24.09205
G1 X81.835 Y82.314 E24.11161
G0 F600 X81.836 Y82.313
G0 X82.021 Y82.147
G0 X82.554 Y82.413
