;Generated by Cura LulzBot Edition GCodeWriter Version: 3.6.37
;FLAVOR:Marlin
;TIME:716
;Filament used: 0.367203m
;Layer height: 0.18
;Generated with Cura_SteamEngine 3.6.37-win10
M82 ;absolute extrusion mode
;This G-Code has been generated specifically for the LulzBot Sidekick with a Universal Tool Head
;
;The following lines can be uncommented for printer specific fine tuning
;More information can be found at https://marlinfw.org/meta/gcode/ (Note: current values are based on SE Tool Head)
;
;M92 E420                 ;Set Axis Steps-per-unit
;M301 P21.0 I1.78 D61.93  ;Set Hotend PID
;M906 E960                ;TMC Motor Current
;
G90                       ; absolute coordinate
M82                       ; set extruder to absolute mode
G92 E0                    ; set extruder position to 0
M117 Heating...           ; progress indicator message on LCD
M140 S60.0   ; start bed heating up
M109 R140        ; soften filament before homing Z
G28                       ; Home all axis
G1 E-15 F100              ; retract filament
M104 S140         ; start extruder heating to probe temp
M190 S60.0   ; wait for bed to reach printing temp
G29                                        ; start auto leveling
G0 X0 Y0 F5000
M109 R210 ; wait for extruder to reach initial printing temp
M117 SideKick Printing...                  ; progress indicator message on LCD
G1 Z2 E0 F75                               ; prime tiny bit of filament into the nozzle
M221 S100 T0
G92 E0
G1 F600 E-1.75
;LAYER_COUNT:34
;LAYER:0
M107
;MESH:
G0 F600 X72.63 Y81.63 Z0.425
;TYPE:WALL-INNER
G1 F600 E0
G1 F900 X72.63 Y85.67 E0.35692
G1 X76.67 Y85.67 E0.71385
G1 X76.67 Y81.63 E1.07077
G1 X72.63 Y81.63 E1.42769
G0 F600 X72.56 Y81.56
G0 X72.602 Y85.698
G0 X77.556 Y88.304
G0 X77.61 Y88.388
G1 F900 X77.47 Y88.473 E1.44216
G1 X77.071 Y88.684 E1.48204
G1 X76.919 Y88.755 E1.49686
G1 X76.532 Y88.91 E1.53369
G1 X76.348 Y88.972 E1.55084
G1 X75.941 Y89.085 E1.58816
G1 X75.765 Y89.124 E1.60409
G1 X75.336 Y89.193 E1.64248
G1 X75.163 Y89.213 E1.65786
G1 X74.74 Y89.235 E1.69528
G1 X74.563 Y89.236 E1.71092
G1 X74.134 Y89.212 E1.74888
G1 X73.962 Y89.193 E1.76417
G1 X73.536 Y89.125 E1.80228
G1 X73.36 Y89.086 E1.81821
G1 X72.955 Y88.974 E1.85533
G1 X72.77 Y88.911 E1.8726
G1 X72.388 Y88.758 E1.90895
G1 X72.228 Y88.684 E1.92453
G1 X71.84 Y88.479 E1.9633
G1 X71.698 Y88.394 E1.97792
G1 X71.352 Y88.159 E2.01487
G1 X71.192 Y88.036 E2.0327
G1 X70.858 Y87.753 E2.07137
G1 X70.748 Y87.649 E2.08475
G1 X70.445 Y87.328 E2.12375
G1 X70.34 Y87.205 E2.13803
G1 X70.074 Y86.854 E2.17694
G1 X69.972 Y86.702 E2.19311
G1 X69.749 Y86.33 E2.23143
G1 X69.676 Y86.194 E2.24507
G1 X69.491 Y85.792 E2.28417
G1 X69.432 Y85.644 E2.29824
G1 X69.291 Y85.225 E2.3373
G1 X69.243 Y85.06 E2.35248
G1 X69.152 Y84.637 E2.39071
G1 X69.123 Y84.459 E2.40664
G1 X69.077 Y84.036 E2.44423
G1 X69.067 Y83.858 E2.45998
G1 X69.068 Y83.431 E2.49771
G1 X69.076 Y83.266 E2.5123
G1 X69.121 Y82.854 E2.54892
G1 X69.156 Y82.64 E2.56807
G1 X69.247 Y82.22 E2.60604
G1 X69.431 Y81.657 E2.65837
G1 X69.49 Y81.509 E2.67244
G1 X69.678 Y81.102 E2.71205
G1 X69.748 Y80.971 E2.72517
G1 X69.97 Y80.599 E2.76345
G1 X70.08 Y80.438 E2.78067
G1 X70.345 Y80.088 E2.81946
G1 X70.444 Y79.973 E2.83286
G1 X70.741 Y79.658 E2.87111
G1 X70.87 Y79.537 E2.88674
G1 X71.203 Y79.255 E2.92529
G1 X71.344 Y79.147 E2.94098
G1 X71.697 Y78.907 E2.97869
G1 X71.839 Y78.822 E2.99331
G1 X72.227 Y78.617 E3.03208
G1 X72.387 Y78.543 E3.04766
G1 X72.769 Y78.39 E3.08401
G1 X72.954 Y78.327 E3.10128
G1 X73.359 Y78.215 E3.1384
G1 X73.535 Y78.176 E3.15433
G1 X73.964 Y78.107 E3.19272
G1 X74.137 Y78.087 E3.2081
G1 X74.56 Y78.065 E3.24552
G1 X74.738 Y78.065 E3.26125
G1 X75.164 Y78.088 E3.29894
G1 X75.338 Y78.107 E3.3144
G1 X75.764 Y78.175 E3.35252
G1 X75.94 Y78.214 E3.36844
G1 X76.345 Y78.326 E3.40557
G1 X76.531 Y78.389 E3.42292
G1 X76.901 Y78.537 E3.45812
G1 X77.078 Y78.619 E3.47536
G1 X77.465 Y78.824 E3.51405
G1 X77.595 Y78.902 E3.52744
G1 X77.943 Y79.137 E3.56454
G1 X78.106 Y79.261 E3.58263
G1 X78.433 Y79.538 E3.6205
G1 X78.547 Y79.646 E3.63437
G1 X78.855 Y79.972 E3.67399
G1 X78.96 Y80.095 E3.68828
G1 X79.219 Y80.437 E3.72618
G1 X79.329 Y80.598 E3.74341
G1 X79.618 Y81.095 E3.7942
G1 X79.809 Y81.508 E3.8344
G1 X79.865 Y81.648 E3.84772
G1 X80.052 Y82.219 E3.9008
G1 X80.148 Y82.663 E3.94094
G1 X80.176 Y82.829 E3.95581
G1 X80.221 Y83.249 E3.99313
G1 X80.233 Y83.444 E4.01039
G1 X80.232 Y83.866 E4.04767
G1 X80.224 Y84.032 E4.06235
G1 X80.178 Y84.463 E4.10065
G1 X80.149 Y84.636 E4.11615
G1 X80.058 Y85.059 E4.15437
G1 X80.01 Y85.224 E4.16955
G1 X79.869 Y85.643 E4.20861
G1 X79.807 Y85.799 E4.22344
G1 X79.634 Y86.174 E4.25993
G1 X79.551 Y86.33 E4.27554
G1 X79.334 Y86.694 E4.31298
G1 X79.213 Y86.873 E4.33207
G1 X78.966 Y87.2 E4.36827
G1 X78.864 Y87.319 E4.38212
G1 X78.562 Y87.638 E4.42093
G1 X78.42 Y87.772 E4.43818
G1 X78.109 Y88.035 E4.47416
G1 X77.942 Y88.163 E4.49275
G1 X77.61 Y88.388 E4.52818
G0 F600 X77.556 Y88.304
G0 X78.354 Y87.698
G0 X78.761 Y88.138
;TYPE:WALL-OUTER
G1 F900 X78.414 Y88.432 E4.56836
G1 X78.246 Y88.561 E4.58707
G1 X77.88 Y88.809 E4.62613
G1 X77.706 Y88.914 E4.64409
G1 X77.3 Y89.129 E4.68468
G1 X77.115 Y89.215 E4.7027
G1 X76.698 Y89.382 E4.74239
G1 X76.499 Y89.449 E4.76094
G1 X76.058 Y89.571 E4.80136
G1 X75.859 Y89.616 E4.81939
G1 X75.405 Y89.689 E4.86001
G1 X75.214 Y89.711 E4.877
G1 X74.747 Y89.735 E4.91831
G1 X74.554 Y89.736 E4.93536
G1 X74.093 Y89.71 E4.97615
G1 X73.887 Y89.688 E4.99446
G1 X73.442 Y89.617 E5.03427
G1 X73.243 Y89.572 E5.05229
G1 X72.804 Y89.451 E5.09252
G1 X72.603 Y89.383 E5.11127
G1 X72.192 Y89.218 E5.1504
G1 X72.001 Y89.13 E5.16898
G1 X71.595 Y88.915 E5.20956
G1 X71.425 Y88.813 E5.22708
G1 X71.055 Y88.562 E5.26658
G1 X70.887 Y88.433 E5.28529
G1 X70.535 Y88.135 E5.32604
G1 X70.39 Y87.998 E5.34366
G1 X70.074 Y87.664 E5.38428
G1 X69.946 Y87.514 E5.40171
G1 X69.674 Y87.155 E5.4415
G1 X69.552 Y86.975 E5.46071
G1 X69.32 Y86.587 E5.50065
G1 X69.228 Y86.416 E5.5178
G1 X69.032 Y85.992 E5.55907
G1 X68.961 Y85.813 E5.57608
G1 X68.812 Y85.371 E5.61729
G1 X68.758 Y85.183 E5.63457
G1 X68.663 Y84.743 E5.67434
G1 X68.627 Y84.526 E5.69378
G1 X68.579 Y84.076 E5.73376
G1 X68.567 Y83.869 E5.75208
G1 X68.568 Y83.43 E5.79086
G1 X68.578 Y83.225 E5.80899
G1 X68.627 Y82.774 E5.84907
G1 X68.662 Y82.558 E5.8684
G1 X68.758 Y82.114 E5.90854
G1 X68.811 Y81.93 E5.92545
G1 X68.96 Y81.488 E5.96666
G1 X69.031 Y81.309 E5.98367
G1 X69.227 Y80.885 E6.02494
G1 X69.319 Y80.714 E6.0421
G1 X69.551 Y80.326 E6.08204
G1 X69.674 Y80.145 E6.10137
G1 X69.948 Y79.783 E6.14148
G1 X70.073 Y79.637 E6.15846
G1 X70.389 Y79.303 E6.19908
G1 X70.536 Y79.165 E6.2169
G1 X70.89 Y78.864 E6.25795
G1 X71.054 Y78.739 E6.27617
G1 X71.424 Y78.488 E6.31567
G1 X71.594 Y78.386 E6.33318
G1 X72 Y78.171 E6.37377
G1 X72.191 Y78.083 E6.39235
G1 X72.602 Y77.918 E6.43148
G1 X72.803 Y77.85 E6.45022
G1 X73.242 Y77.729 E6.49045
G1 X73.441 Y77.684 E6.50848
G1 X73.895 Y77.611 E6.5491
G1 X74.086 Y77.589 E6.56609
G1 X74.553 Y77.565 E6.6074
G1 X74.747 Y77.565 E6.62454
G1 X75.206 Y77.59 E6.66515
G1 X75.413 Y77.612 E6.68354
G1 X75.858 Y77.683 E6.72335
G1 X76.057 Y77.728 E6.74138
G1 X76.496 Y77.849 E6.78161
G1 X76.697 Y77.917 E6.80036
G1 X77.107 Y78.081 E6.83937
G1 X77.299 Y78.17 E6.85807
G1 X77.705 Y78.385 E6.89865
G1 X77.871 Y78.485 E6.91578
G1 X78.245 Y78.738 E6.95567
G1 X78.409 Y78.863 E6.97388
G1 X78.765 Y79.165 E7.01513
G1 X78.91 Y79.302 E7.03275
G1 X79.226 Y79.636 E7.07337
G1 X79.354 Y79.786 E7.0908
G1 X79.625 Y80.144 E7.13046
G1 X79.748 Y80.325 E7.1498
G1 X79.98 Y80.713 E7.18974
G1 X80.072 Y80.884 E7.20689
G1 X80.268 Y81.308 E7.24816
G1 X80.339 Y81.487 E7.26517
G1 X80.488 Y81.929 E7.30638
G1 X80.541 Y82.113 E7.3233
G1 X80.637 Y82.557 E7.36343
G1 X80.671 Y82.76 E7.38161
G1 X80.72 Y83.212 E7.42178
G1 X80.733 Y83.431 E7.44116
G1 X80.732 Y83.87 E7.47995
G1 X80.722 Y84.075 E7.49808
G1 X80.673 Y84.533 E7.53878
G1 X80.638 Y84.742 E7.5575
G1 X80.543 Y85.182 E7.59727
G1 X80.489 Y85.37 E7.61455
G1 X80.34 Y85.812 E7.65575
G1 X80.269 Y85.991 E7.67277
G1 X80.079 Y86.403 E7.71285
G1 X79.981 Y86.586 E7.73119
G1 X79.749 Y86.974 E7.77113
G1 X79.626 Y87.155 E7.79046
G1 X79.36 Y87.507 E7.82944
G1 X79.227 Y87.663 E7.84755
G1 X78.915 Y87.993 E7.88768
G1 X78.761 Y88.138 E7.90636
G0 F600 X78.57 Y88.299
G0 X78.185 Y87.841
G0 X76.698 Y81.602
G0 X73.13 Y81.53
G0 X73.13 Y82.13
G1 F900 X73.13 Y85.17 E8.17494
G1 X76.17 Y85.17 E8.44351
G1 X76.17 Y82.13 E8.71209
G1 X73.13 Y82.13 E8.98067
G0 F600 X73.13 Y82.38
G0 X72.53 Y82.38
G0 X72.14 Y81.14
;TYPE:SKIN
G1 F900 X72.14 Y86.16 E9.42417
G1 X77.16 Y86.16 E9.86767
G1 X77.16 Y81.14 E10.31117
G1 X72.14 Y81.14 E10.75468
G0 F600 X70.725 Y80.397
G1 F900 X71.098 Y79.995 E10.80313
G1 X71.187 Y79.911 E10.81394
G1 X71.52 Y79.629 E10.85249
G1 X71.625 Y79.549 E10.86415
G1 X71.961 Y79.32 E10.90008
G1 X72.09 Y79.243 E10.91335
G1 X72.438 Y79.06 E10.94809
G1 X72.59 Y78.989 E10.96291
G1 X72.939 Y78.85 E10.9961
G1 X73.106 Y78.793 E11.01169
G1 X73.477 Y78.691 E11.04568
G1 X73.619 Y78.659 E11.05854
G1 X74.042 Y78.591 E11.09639
G1 X74.162 Y78.577 E11.10706
G1 X74.585 Y78.555 E11.14448
G1 X74.712 Y78.555 E11.1557
G1 X75.118 Y78.576 E11.19162
G1 X75.284 Y78.595 E11.20638
G1 X75.676 Y78.657 E11.24144
G1 X76.201 Y78.794 E11.28938
G1 X76.359 Y78.848 E11.30413
G1 X76.71 Y78.988 E11.33752
G1 X76.861 Y79.059 E11.35226
G1 X77.223 Y79.25 E11.38842
G1 X77.335 Y79.318 E11.4
G1 X77.657 Y79.535 E11.4343
G1 X77.798 Y79.643 E11.44999
G1 X78.115 Y79.911 E11.48666
G1 X78.2 Y79.992 E11.49704
G1 X78.579 Y80.403 E11.54643
G1 X78.829 Y80.733 E11.58301
G1 X78.909 Y80.85 E11.59553
G1 X79.178 Y81.313 E11.64284
G1 X79.364 Y81.714 E11.68189
G1 X79.404 Y81.815 E11.69149
G1 X79.582 Y82.36 E11.74214
G1 X79.657 Y82.705 E11.77333
G1 X79.69 Y82.897 E11.79054
G1 X79.731 Y83.279 E11.82448
G1 X79.743 Y83.474 E11.84174
G1 X79.736 Y83.98 E11.88645
G1 X79.692 Y84.396 E11.92341
G1 X79.666 Y84.552 E11.93738
G1 X79.583 Y84.94 E11.97244
G1 X79.409 Y85.474 E12.02205
G1 X79.36 Y85.598 E12.03383
G1 X79.201 Y85.944 E12.06748
G1 X79.125 Y86.088 E12.08186
G1 X78.922 Y86.429 E12.11692
G1 X78.813 Y86.591 E12.13417
G1 X78.588 Y86.888 E12.16709
G1 X78.508 Y86.982 E12.178
G1 X78.22 Y87.286 E12.21499
G1 X78.083 Y87.415 E12.23162
G1 X77.8 Y87.655 E12.2644
G1 X77.667 Y87.757 E12.27921
G1 X77.348 Y87.973 E12.31324
G1 X77.222 Y88.05 E12.32629
G1 X76.858 Y88.242 E12.36265
G1 X76.724 Y88.305 E12.37573
G1 X76.359 Y88.451 E12.41046
G1 X76.205 Y88.504 E12.42485
G1 X75.823 Y88.609 E12.45985
G1 X75.681 Y88.641 E12.47271
G1 X75.258 Y88.709 E12.51056
G1 X75.138 Y88.723 E12.52123
G1 X74.715 Y88.745 E12.55865
G1 X74.587 Y88.746 E12.56996
G1 X74.039 Y88.709 E12.61849
G1 X73.624 Y88.643 E12.65561
G1 X73.102 Y88.506 E12.70329
G1 X72.941 Y88.451 E12.71832
G1 X72.579 Y88.307 E12.75274
G1 X72.445 Y88.244 E12.76582
G1 X72.083 Y88.053 E12.80198
G1 X71.949 Y87.973 E12.81577
G1 X71.639 Y87.762 E12.8489
G1 X71.501 Y87.655 E12.86433
G1 X71.175 Y87.379 E12.90206
G1 X70.802 Y86.991 E12.94961
G1 X70.723 Y86.899 E12.96033
G1 X70.472 Y86.569 E12.99696
G1 X70.386 Y86.44 E13.01065
G1 X70.17 Y86.079 E13.04782
G1 X70.115 Y85.976 E13.05814
G1 X69.939 Y85.594 E13.0953
G1 X69.891 Y85.472 E13.10688
G1 X69.755 Y85.068 E13.14454
G1 X69.718 Y84.94 E13.15631
G1 X69.634 Y84.547 E13.19181
G1 X69.611 Y84.404 E13.20461
G1 X69.565 Y83.983 E13.24203
G1 X69.557 Y83.831 E13.25547
G1 X69.564 Y83.319 E13.30071
G1 X69.609 Y82.907 E13.33733
G1 X69.638 Y82.731 E13.35309
G1 X69.721 Y82.349 E13.38762
G1 X69.892 Y81.823 E13.43649
G1 X69.935 Y81.714 E13.44684
G1 X70.169 Y81.222 E13.49497
G1 X70.391 Y80.85 E13.53324
G1 X70.47 Y80.734 E13.54564
G1 X70.725 Y80.397 E13.58298
G0 F600 X71.665 Y86.634
G1 F900 X71.665 Y86.514 E13.59358
G1 X70.275 Y85.124 E13.76725
G0 F600 X70.333 Y85.298
G1 F900 X70.375 Y85.407 E13.77757
G1 X70.535 Y85.752 E13.81117
G1 X70.582 Y85.843 E13.82022
G1 X70.786 Y86.184 E13.85532
G1 X70.857 Y86.292 E13.86674
G1 X71.084 Y86.588 E13.8997
G1 X71.163 Y86.679 E13.91034
G1 X71.489 Y87.02 E13.95202
G1 X71.808 Y87.291 E13.989
G1 X71.913 Y87.372 E14.00072
G1 X72.211 Y87.575 E14.03257
G1 X72.312 Y87.635 E14.04295
G1 X72.658 Y87.818 E14.07753
G1 X72.774 Y87.872 E14.08884
G1 X73.077 Y87.994 E14.11769
G1 X73.179 Y88.029 E14.12722
G0 F600 X72.482 Y87.331
G1 F900 X71.665 Y86.16 E14.27551
G1 X70.052 Y84.07 E14.54969
G1 X70.033 Y83.638 E14.59459
G1 X71.665 Y84.746 E14.79945
G1 X70.104 Y82.825 E15.05652
G1 X70.213 Y82.369 E15.10521
G1 X71.665 Y83.332 E15.28616
G1 X70.514 Y81.599 E15.50221
G1 X71.665 Y81.917 E15.62623
G1 X71.189 Y80.593 E15.77234
G1 X71.915 Y80.401 E15.85033
G1 X72.469 Y80.247 E15.91005
G1 X73.043 Y80.114 E15.97124
G1 X72.884 Y79.382 E16.04904
G1 X74.653 Y80.663 E16.27586
G1 X74.261 Y79.917 E16.36338
G1 X73.907 Y79.093 E16.45652
G1 X76.067 Y80.663 E16.73384
G1 X74.937 Y79.042 E16.93905
G1 X75.581 Y79.122 E17.00645
G1 X77.635 Y80.917 E17.28974
G1 X79.147 Y82.599 E17.52463
G1 X78.867 Y81.772 E17.6153
G1 X77.231 Y79.821 E17.87973
G1 X78.629 Y81.312 E18.09199
G1 X77.635 Y81.524 E18.19755
G1 X79.264 Y83.727 E18.48209
G1 X79.248 Y84.065 E18.51723
G1 X77.635 Y82.938 E18.72159
G1 X79.127 Y84.796 E18.96906
G1 X78.961 Y85.309 E19.02506
G1 X77.635 Y84.352 E19.19489
G1 X78.723 Y85.83 E19.38548
G1 X77.635 Y85.766 E19.49867
G1 X78.023 Y86.801 E19.61347
G1 X77.088 Y86.634 E19.71211
G1 X77.239 Y87.472 E19.80054
G1 X77.051 Y87.596 E19.82393
G1 X75.674 Y86.634 E19.99837
G1 X76.37 Y87.933 E20.15142
G1 X76.051 Y88.052 E20.18678
G1 X75.324 Y87.345 E20.2921
G1 X74.685 Y87.413 E20.35884
G1 X74.969 Y88.253 E20.45092
G1 X72.845 Y86.634 E20.72828
G1 X73.91 Y88.207 E20.92557
G1 X73.21 Y88.04 E21.0003
G0 F600 X73.179 Y88.029
G1 F600 E19.2503
G1 F480 Z1.425
G0 F600 X73.179 Y88.029 Z1.425
G0 X91.045 Y76.651
;TYPE:WALL-INNER
G1 F480 Z0.425
G1 F600 E21.0003
G1 F900 X82.385 Y76.651 E21.76539
G1 X82.385 Y75.611 E21.85727
G1 X91.045 Y75.611 E22.62236
G1 X91.045 Y76.651 E22.71424
G0 F600 X91.545 Y77.151
;TYPE:WALL-OUTER
G1 F900 X81.885 Y77.151 E23.56767
G1 X81.885 Y75.111 E23.7479
G1 X91.545 Y75.111 E24.60134
G1 X91.545 Y77.151 E24.78157
G0 F600 X91.295 Y77.151
G0 X90.975 Y76.581
G0 X90.555 Y76.161
;TYPE:SKIN
G1 F900 X82.875 Y76.161 E25.46007
G1 X82.875 Y76.101 E25.46537
G1 X90.555 Y76.101 E26.14388
G1 X90.555 Y76.161 E26.14918
G0 F600 X90.545 Y76.151
G1 F600 E24.39918
G1 F480 Z1.425
G0 F600 X90.545 Y76.151 Z1.425
G0 X90.63 Y90.63
;TYPE:WALL-INNER
G1 F480 Z0.425
G1 F600 E26.14918
G1 F900 X90.63 Y94.67 E26.5061
G1 X94.67 Y94.67 E26.86303
G1 X94.67 Y90.63 E27.21995
G1 X90.63 Y90.63 E27.57687
G0 F600 X90.56 Y90.56
G0 X90.602 Y94.698
G0 X95.556 Y97.304
G0 X95.61 Y97.388
G1 F900 X95.47 Y97.473 E27.59134
G1 X95.071 Y97.684 E27.63122
G1 X94.919 Y97.755 E27.64604
G1 X94.532 Y97.91 E27.68287
G1 X94.348 Y97.972 E27.70002
G1 X93.941 Y98.085 E27.73734
G1 X93.765 Y98.124 E27.75327
G1 X93.336 Y98.193 E27.79166
G1 X93.163 Y98.213 E27.80704
G1 X92.74 Y98.235 E27.84446
G1 X92.563 Y98.236 E27.8601
G1 X92.134 Y98.212 E27.89806
G1 X91.962 Y98.193 E27.91335
G1 X91.536 Y98.125 E27.95146
G1 X91.36 Y98.086 E27.96739
G1 X90.955 Y97.974 E28.00451
G1 X90.77 Y97.911 E28.02178
G1 X90.388 Y97.758 E28.05813
G1 X90.228 Y97.684 E28.07371
G1 X89.84 Y97.479 E28.11248
G1 X89.698 Y97.394 E28.1271
G1 X89.352 Y97.159 E28.16405
G1 X89.192 Y97.036 E28.18188
G1 X88.858 Y96.753 E28.22055
G1 X88.748 Y96.649 E28.23393
G1 X88.445 Y96.328 E28.27293
G1 X88.34 Y96.205 E28.28721
G1 X88.074 Y95.854 E28.32612
G1 X87.972 Y95.702 E28.34229
G1 X87.749 Y95.33 E28.38061
G1 X87.676 Y95.194 E28.39425
G1 X87.491 Y94.792 E28.43335
G1 X87.432 Y94.644 E28.44742
G1 X87.291 Y94.225 E28.48648
G1 X87.243 Y94.06 E28.50166
G1 X87.152 Y93.637 E28.53989
G1 X87.123 Y93.459 E28.55582
G1 X87.077 Y93.036 E28.59341
G1 X87.067 Y92.858 E28.60916
G1 X87.068 Y92.431 E28.64689
G1 X87.076 Y92.266 E28.66148
G1 X87.121 Y91.854 E28.6981
G1 X87.156 Y91.64 E28.71725
G1 X87.247 Y91.22 E28.75522
G1 X87.431 Y90.657 E28.80755
G1 X87.49 Y90.509 E28.82162
G1 X87.678 Y90.102 E28.86123
G1 X87.748 Y89.971 E28.87435
G1 X87.97 Y89.599 E28.91263
G1 X88.08 Y89.438 E28.92985
G1 X88.345 Y89.088 E28.96864
G1 X88.444 Y88.973 E28.98204
