;Generated by Cura LulzBot Edition GCodeWriter Version: 3.6.37
;FLAVOR:Marlin
;TIME:816
;Filament used: 0.435762m
;Layer height: 0.18
;Generated with Cura_SteamEngine 3.6.37-win10
M82 ;absolute extrusion mode
;This G-Code has been generated specifically for the LulzBot Sidekick with a Universal Tool Head
;
;The following lines can be uncommented for printer specific fine tuning
;More information can be found at https://marlinfw.org/meta/gcode/ (Note: current values are based on SE Tool Head)
;
;M92 E420                 ;Set Axis Steps-per-unit
;M301 P21.0 I1.78 D61.93  ;Set Hotend PID
;M906 E960                ;TMC Motor Current
;
G90                       ; absolute coordinate
M82                       ; set extruder to absolute mode
G92 E0                    ; set extruder position to 0
M117 Heating...           ; progress indicator message on LCD
M140 S60.0   ; start bed heating up
M109 R140        ; soften filament before homing Z
G28                       ; Home all axis
G1 E-15 F100              ; retract filament
M104 S140         ; start extruder heating to probe temp
M190 S60.0   ; wait for bed to reach printing temp
G29                                        ; start auto leveling
G0 X0 Y0 F5000
M109 R210 ; wait for extruder to reach initial printing temp
M117 SideKick Printing...                  ; progress indicator message on LCD
G1 Z2 E0 F75                               ; prime tiny bit of filament into the nozzle
M221 S100 T0
G92 E0
G1 F600 E-1.75
;LAYER_COUNT:34
;LAYER:0
M107
G0 F600 X74.688 Y75.06 Z0.425
;TYPE:SKIRT
G1 F600 E0
G1 F900 X75.269 Y74.574 E0.06692
G1 X77.406 Y73.059 E0.29835
G1 X77.931 Y72.736 E0.35281
G1 X78.493 Y72.484 E0.40722
G1 X79.219 Y72.277 E0.47392
G1 X81.787 Y71.762 E0.70531
G1 X82.398 Y71.68 E0.75977
G1 X83.014 Y71.678 E0.8142
G1 X83.76 Y71.784 E0.88077
G1 X86.32 Y72.358 E1.11255
G1 X86.911 Y72.532 E1.16698
G1 X87.475 Y72.78 E1.22141
G1 X88.119 Y73.184 E1.28858
G1 X90.22 Y74.749 E1.52003
G1 X90.689 Y75.148 E1.57443
G1 X91.102 Y75.605 E1.62885
G1 X91.522 Y76.229 E1.6953
G1 X92.805 Y78.51 E1.92651
G1 X93.072 Y79.066 E1.981
G1 X93.264 Y79.651 E2.0354
G1 X93.394 Y80.397 E2.1023
G1 X93.638 Y83.009 E2.33407
G1 X93.656 Y83.625 E2.38851
G1 X93.593 Y84.238 E2.44296
G1 X93.409 Y84.972 E2.50981
G1 X92.57 Y87.454 E2.74128
G1 X92.335 Y88.024 E2.79575
G1 X92.029 Y88.558 E2.85012
G1 X91.563 Y89.152 E2.91682
G1 X89.787 Y91.079 E3.14834
G1 X89.341 Y91.504 E3.20277
G1 X88.843 Y91.868 E3.25727
G1 X88.175 Y92.222 E3.32406
G1 X85.768 Y93.26 E3.55564
G1 X85.188 Y93.466 E3.61002
G1 X84.585 Y93.596 E3.66451
G1 X83.831 Y93.648 E3.73129
G1 X81.21 Y93.617 E3.96286
G1 X80.596 Y93.569 E4.01727
G1 X79.992 Y93.443 E4.07178
G1 X79.286 Y93.185 E4.13819
G1 X76.907 Y92.094 E4.36942
G1 X76.365 Y91.801 E4.42385
G1 X75.865 Y91.441 E4.47828
G1 X75.319 Y90.912 E4.54545
G1 X73.59 Y88.945 E4.77682
G1 X73.214 Y88.457 E4.83124
G1 X72.905 Y87.924 E4.88567
G1 X72.624 Y87.225 E4.95223
G1 X71.842 Y84.722 E5.1839
G1 X71.697 Y84.124 E5.23827
G1 X71.63 Y83.511 E5.29275
G1 X71.658 Y82.755 E5.35958
G1 X71.962 Y80.153 E5.59103
G1 X72.073 Y79.547 E5.64546
G1 X72.262 Y78.96 E5.69994
G1 X72.593 Y78.283 E5.76651
G1 X73.929 Y76.028 E5.99808
G1 X74.277 Y75.519 E6.05255
G1 X74.688 Y75.06 E6.10698
G0 F600 X75.084 Y75.373
G1 F900 X75.558 Y74.982 E6.16127
G1 X77.695 Y73.467 E6.3927
G1 X78.192 Y73.163 E6.44417
G1 X78.727 Y72.93 E6.49572
G1 X79.317 Y72.767 E6.5498
G1 X81.885 Y72.252 E6.78119
G1 X82.463 Y72.177 E6.83269
G1 X83.046 Y72.181 E6.88419
G1 X83.651 Y72.272 E6.93825
G1 X86.211 Y72.846 E7.17003
G1 X86.769 Y73.012 E7.22146
G1 X87.3 Y73.253 E7.27298
G1 X87.82 Y73.585 E7.32749
G1 X89.921 Y75.15 E7.55894
G1 X90.363 Y75.529 E7.61038
G1 X90.75 Y75.965 E7.66188
G1 X91.086 Y76.474 E7.71577
G1 X92.369 Y78.755 E7.94698
G1 X92.619 Y79.282 E7.99851
G1 X92.795 Y79.837 E8.04995
G1 X92.897 Y80.444 E8.10433
G1 X93.141 Y83.056 E8.3361
G1 X93.155 Y83.638 E8.38753
G1 X93.089 Y84.217 E8.43901
G1 X92.935 Y84.812 E8.49331
G1 X92.096 Y87.294 E8.72478
G1 X91.872 Y87.832 E8.77626
G1 X91.577 Y88.334 E8.82771
G1 X91.195 Y88.813 E8.88183
G1 X89.419 Y90.74 E9.11336
G1 X88.996 Y91.141 E9.16485
G1 X88.522 Y91.479 E9.21628
G1 X87.977 Y91.763 E9.27058
G1 X85.57 Y92.801 E9.50216
G1 X85.02 Y92.994 E9.55366
G1 X84.449 Y93.111 E9.60515
G1 X83.837 Y93.148 E9.65932
G1 X81.216 Y93.117 E9.89089
G1 X80.635 Y93.07 E9.94239
G1 X80.066 Y92.944 E9.99388
G1 X79.494 Y92.73 E10.04783
G1 X77.115 Y91.639 E10.27906
G1 X76.604 Y91.36 E10.33049
G1 X76.135 Y91.014 E10.38198
G1 X75.695 Y90.582 E10.43646
G1 X73.966 Y88.615 E10.66783
G1 X73.612 Y88.152 E10.71932
G1 X73.325 Y87.645 E10.77079
G1 X73.101 Y87.076 E10.82482
G1 X72.319 Y84.573 E11.05649
G1 X72.184 Y84.007 E11.1079
G1 X72.128 Y83.427 E11.15938
G1 X72.155 Y82.813 E11.21368
G1 X72.459 Y80.211 E11.44512
G1 X72.566 Y79.638 E11.49662
G1 X72.75 Y79.085 E11.54811
G1 X73.024 Y78.538 E11.60216
G1 X74.36 Y76.283 E11.83372
G1 X74.69 Y75.803 E11.88518
G1 X75.084 Y75.373 E11.93671
G0 F600 X75.477 Y75.689
G1 F900 X75.847 Y75.39 E11.97873
G1 X77.984 Y73.875 E12.21016
G1 X78.453 Y73.592 E12.25856
G1 X78.957 Y73.38 E12.30686
G1 X79.416 Y73.257 E12.34885
G1 X81.984 Y72.742 E12.58024
G1 X82.527 Y72.674 E12.62859
G1 X83.074 Y72.686 E12.67692
G1 X83.541 Y72.76 E12.7187
G1 X86.101 Y73.334 E12.95048
G1 X86.625 Y73.492 E12.99883
G1 X87.121 Y73.725 E13.04725
G1 X87.521 Y73.986 E13.08944
G1 X89.622 Y75.551 E13.3209
G1 X90.036 Y75.909 E13.36925
G1 X90.393 Y76.323 E13.41755
G1 X90.65 Y76.72 E13.45933
G1 X91.933 Y79.001 E13.69054
G1 X92.166 Y79.496 E13.73888
G1 X92.324 Y80.02 E13.78723
G1 X92.399 Y80.49 E13.82928
G1 X92.643 Y83.102 E14.06104
G1 X92.654 Y83.649 E14.10938
G1 X92.585 Y84.192 E14.15774
G1 X92.462 Y84.652 E14.19981
G1 X91.623 Y87.134 E14.43127
G1 X91.41 Y87.638 E14.47961
G1 X91.126 Y88.106 E14.52798
G1 X90.827 Y88.474 E14.56987
G1 X89.051 Y90.401 E14.80139
G1 X88.652 Y90.776 E14.84977
G1 X88.203 Y91.088 E14.89807
G1 X87.779 Y91.303 E14.94007
G1 X85.372 Y92.341 E15.17165
G1 X84.855 Y92.521 E15.22002
G1 X84.317 Y92.623 E15.26839
G1 X83.843 Y92.648 E15.31033
G1 X81.222 Y92.617 E15.5419
G1 X80.676 Y92.57 E15.59032
G1 X80.143 Y92.445 E15.63869
G1 X79.703 Y92.276 E15.68033
G1 X77.324 Y91.185 E15.91155
G1 X76.844 Y90.921 E15.95995
G1 X76.408 Y90.59 E16.00831
G1 X76.07 Y90.252 E16.05054
G1 X74.341 Y88.285 E16.28191
G1 X74.011 Y87.848 E16.33029
G1 X73.748 Y87.369 E16.37857
G1 X73.579 Y86.927 E16.42038
G1 X72.797 Y84.424 E16.65205
G1 X72.672 Y83.891 E16.70042
G1 X72.626 Y83.346 E16.74874
G1 X72.651 Y82.871 E16.79076
G1 X72.955 Y80.269 E17.0222
G1 X73.058 Y79.731 E17.0706
G1 X73.239 Y79.214 E17.11899
G1 X73.454 Y78.793 E17.16076
G1 X74.79 Y76.538 E17.39232
G1 X75.102 Y76.088 E17.4407
G1 X75.477 Y75.689 E17.48907
G0 F600 X75.868 Y76.01
G1 F900 X76.136 Y75.798 E17.51926
G1 X78.273 Y74.283 E17.75069
G1 X78.711 Y74.021 E17.79578
G1 X79.184 Y73.832 E17.84078
G1 X79.514 Y73.747 E17.87089
G1 X82.082 Y73.232 E18.10228
G1 X82.588 Y73.172 E18.1473
G1 X83.097 Y73.191 E18.1923
G1 X83.432 Y73.248 E18.22232
G1 X85.992 Y73.822 E18.4541
G1 X86.479 Y73.972 E18.49912
G1 X86.936 Y74.196 E18.54409
G1 X87.222 Y74.387 E18.57447
G1 X89.323 Y75.952 E18.80593
G1 X89.707 Y76.287 E18.85095
G1 X90.033 Y76.678 E18.89592
G1 X90.215 Y76.965 E18.92595
G1 X91.498 Y79.246 E19.15716
G1 X91.712 Y79.708 E19.20214
G1 X91.851 Y80.198 E19.24714
G1 X91.901 Y80.537 E19.27741
G1 X92.145 Y83.149 E19.50918
G1 X92.152 Y83.658 E19.55415
G1 X92.08 Y84.163 E19.59922
G1 X91.988 Y84.492 E19.6294
G1 X91.149 Y86.974 E19.86087
G1 X90.948 Y87.442 E19.90586
G1 X90.677 Y87.873 E19.95084
G1 X90.46 Y88.136 E19.98097
G1 X88.684 Y90.063 E20.21249
G1 X88.31 Y90.409 E20.2575
G1 X87.887 Y90.693 E20.30252
G1 X87.581 Y90.844 E20.33266
G1 X85.174 Y91.882 E20.56424
G1 X84.692 Y92.047 E20.60925
G1 X84.19 Y92.134 E20.65427
G1 X83.849 Y92.148 E20.68442
G1 X81.228 Y92.117 E20.91599
G1 X80.72 Y92.071 E20.96106
G1 X80.226 Y91.946 E21.00607
G1 X79.911 Y91.821 E21.03601
G1 X77.532 Y90.73 E21.26724
G1 X77.087 Y90.482 E21.31225
G1 X76.686 Y90.168 E21.35724
G1 X76.446 Y89.922 E21.38761
G1 X74.717 Y87.955 E21.61898
G1 X74.412 Y87.547 E21.66398
G1 X74.174 Y87.096 E21.70903
G1 X74.056 Y86.778 E21.739
G1 X73.274 Y84.275 E21.97067
G1 X73.161 Y83.778 E22.0157
G1 X73.126 Y83.27 E22.06069
G1 X73.148 Y82.929 E22.09088
G1 X73.452 Y80.327 E22.32232
G1 X73.551 Y79.827 E22.36735
G1 X73.726 Y79.349 E22.41233
G1 X73.884 Y79.047 E22.44244
G1 X75.22 Y76.792 E22.674
G1 X75.513 Y76.376 E22.71895
G1 X75.868 Y76.01 E22.764
G0 F600 X75.922 Y76.666
G1 F900 X76.426 Y76.206 E22.82428
G1 X78.563 Y74.691 E23.05571
G1 X78.967 Y74.453 E23.09714
G1 X79.612 Y74.238 E23.15721
G1 X82.18 Y73.723 E23.3886
G1 X82.646 Y73.67 E23.43003
G1 X83.323 Y73.736 E23.49013
G1 X85.883 Y74.31 E23.72191
G1 X86.33 Y74.451 E23.76332
G1 X86.924 Y74.788 E23.82366
G1 X89.025 Y76.353 E24.05511
G1 X89.375 Y76.664 E24.09648
G1 X89.779 Y77.21 E24.15648
G1 X91.062 Y79.491 E24.38769
G1 X91.256 Y79.917 E24.42905
G1 X91.403 Y80.583 E24.4893
G1 X91.647 Y83.195 E24.72107
G1 X91.651 Y83.664 E24.76251
G1 X91.514 Y84.332 E24.82275
G1 X90.675 Y86.814 E25.05422
G1 X90.488 Y87.243 E25.09557
G1 X90.092 Y87.797 E25.15573
G1 X88.316 Y89.724 E25.38725
G1 X87.97 Y90.04 E25.42865
G1 X87.383 Y90.385 E25.4888
G1 X84.976 Y91.423 E25.72038
G1 X84.531 Y91.571 E25.76182
G1 X83.854 Y91.648 E25.82201
G1 X81.233 Y91.617 E26.05359
G1 X80.767 Y91.571 E26.09496
G1 X80.12 Y91.367 E26.15489
G1 X77.741 Y90.276 E26.38612
G1 X77.333 Y90.045 E26.42754
G1 X76.822 Y89.592 E26.48787
G1 X75.093 Y87.625 E26.71924
G1 X74.814 Y87.248 E26.76068
G1 X74.533 Y86.629 E26.82073
G1 X73.751 Y84.126 E27.05241
G1 X73.65 Y83.669 E27.09376
G1 X73.645 Y82.987 E27.15401
G1 X73.949 Y80.385 E27.38546
G1 X74.042 Y79.926 E27.42683
G1 X74.314 Y79.302 E27.48697
G1 X75.65 Y77.047 E27.71853
G1 X75.922 Y76.666 E27.75989
G0 F600 X76.33 Y76.959
G1 F900 X76.715 Y76.613 E27.80562
G1 X78.852 Y75.098 E28.03705
G1 X79.219 Y74.887 E28.07445
G1 X79.711 Y74.728 E28.12013
G1 X82.279 Y74.213 E28.35152
G1 X82.7 Y74.169 E28.38892
G1 X83.213 Y74.224 E28.4345
G1 X85.773 Y74.798 E28.66629
G1 X86.176 Y74.929 E28.70372
G1 X86.625 Y75.189 E28.74956
G1 X88.726 Y76.754 E28.98102
G1 X89.041 Y77.038 E29.01849
G1 X89.343 Y77.455 E29.06397
G1 X90.626 Y79.736 E29.29518
G1 X90.798 Y80.123 E29.3326
G1 X90.905 Y80.63 E29.37838
G1 X91.149 Y83.242 E29.61015
G1 X91.149 Y83.666 E29.64761
G1 X91.041 Y84.172 E29.69332
G1 X90.202 Y86.654 E29.92478
G1 X90.029 Y87.04 E29.96215
G1 X89.724 Y87.458 E30.00787
G1 X87.948 Y89.385 E30.23939
G1 X87.633 Y89.668 E30.2768
G1 X87.185 Y89.926 E30.32248
G1 X84.778 Y90.964 E30.55406
G1 X84.375 Y91.094 E30.59147
G1 X83.86 Y91.148 E30.63722
G1 X81.239 Y91.117 E30.86879
G1 X80.818 Y91.072 E30.9062
G1 X80.328 Y90.912 E30.95174
G1 X77.949 Y89.821 E31.18296
G1 X77.582 Y89.609 E31.22041
G1 X77.197 Y89.261 E31.26626
G1 X75.468 Y87.294 E31.49763
G1 X75.219 Y86.951 E31.53507
G1 X75.01 Y86.48 E31.5806
G1 X74.228 Y83.977 E31.81227
G1 X74.141 Y83.562 E31.84973
G1 X74.141 Y83.045 E31.89541
G1 X74.445 Y80.443 E32.12685
G1 X74.534 Y80.028 E32.16435
G1 X74.744 Y79.557 E32.20991
G1 X76.08 Y77.302 E32.44147
G1 X76.33 Y76.959 E32.47897
G0 F600 X76.734 Y77.258
G1 F900 X77.004 Y77.021 E32.51071
G1 X79.141 Y75.506 E32.74214
G1 X79.467 Y75.324 E32.77512
G1 X79.809 Y75.218 E32.80676
G1 X82.377 Y74.703 E33.03815
G1 X82.749 Y74.669 E33.07115
G1 X83.104 Y74.711 E33.10273
G1 X85.664 Y75.285 E33.33452
G1 X86.018 Y75.406 E33.36757
G1 X86.326 Y75.59 E33.39927
G1 X88.427 Y77.155 E33.63072
G1 X88.701 Y77.408 E33.66367
G1 X88.907 Y77.7 E33.69524
G1 X90.19 Y79.981 E33.92645
G1 X90.338 Y80.324 E33.95945
G1 X90.407 Y80.676 E33.99114
G1 X90.651 Y83.288 E34.22291
G1 X90.646 Y83.662 E34.25596
G1 X90.567 Y84.011 E34.28757
G1 X89.728 Y86.493 E34.51904
G1 X89.571 Y86.833 E34.55212
G1 X89.357 Y87.119 E34.58368
G1 X87.581 Y89.046 E34.8152
G1 X87.3 Y89.292 E34.8482
G1 X86.987 Y89.467 E34.87988
G1 X84.58 Y90.505 E35.11146
G1 X84.223 Y90.615 E35.14446
G1 X83.866 Y90.648 E35.17614
G1 X81.245 Y90.617 E35.40771
G1 X80.874 Y90.573 E35.44072
G1 X80.537 Y90.458 E35.47218
G1 X78.158 Y89.367 E35.7034
G1 X77.836 Y89.176 E35.73648
G1 X77.573 Y88.931 E35.76824
G1 X75.844 Y86.964 E35.99961
G1 X75.628 Y86.659 E36.03263
G1 X75.488 Y86.331 E36.06413
G1 X74.706 Y83.828 E36.29581
G1 X74.633 Y83.461 E36.32887
G1 X74.638 Y83.103 E36.3605
G1 X74.942 Y80.501 E36.59194
G1 X75.025 Y80.137 E36.62492
G1 X75.174 Y79.812 E36.65651
G1 X76.51 Y77.557 E36.88807
G1 X76.734 Y77.258 E36.92108
G0 F600 X77.134 Y77.563
G1 F900 X77.293 Y77.429 E36.93945
G1 X79.43 Y75.914 E37.17088
G1 X79.709 Y75.766 E37.19878
G1 X79.907 Y75.708 E37.21701
G1 X82.475 Y75.193 E37.4484
G1 X82.79 Y75.171 E37.4763
G1 X82.994 Y75.199 E37.49449
G1 X85.554 Y75.773 E37.72628
G1 X85.851 Y75.881 E37.7542
G1 X86.028 Y75.991 E37.77261
G1 X88.129 Y77.556 E38.00406
G1 X88.356 Y77.775 E38.03193
G1 X88.471 Y77.945 E38.05006
G1 X89.754 Y80.226 E38.28127
G1 X89.873 Y80.519 E38.30921
G1 X89.91 Y80.723 E38.32753
G1 X90.154 Y83.335 E38.55929
G1 X90.143 Y83.65 E38.58714
G1 X90.093 Y83.851 E38.60544
G1 X89.254 Y86.333 E38.83691
G1 X89.116 Y86.617 E38.8648
G1 X88.989 Y86.78 E38.88306
G1 X87.213 Y88.707 E39.11458
G1 X86.972 Y88.91 E39.14242
G1 X86.789 Y89.008 E39.16076
G1 X84.382 Y90.046 E39.39234
G1 X84.079 Y90.133 E39.42019
G1 X83.872 Y90.148 E39.43853
G1 X81.251 Y90.117 E39.6701
G1 X80.939 Y90.073 E39.69794
G1 X80.745 Y90.003 E39.71616
G1 X78.366 Y88.912 E39.94739
G1 X78.098 Y88.746 E39.97524
G1 X77.948 Y88.601 E39.99367
G1 X76.219 Y86.634 E40.22504
G1 X76.042 Y86.373 E40.2529
G1 X75.965 Y86.182 E40.27109
G1 X75.183 Y83.679 E40.50277
G1 X75.128 Y83.368 E40.53067
G1 X75.134 Y83.161 E40.54897
G1 X75.438 Y80.559 E40.78041
G1 X75.514 Y80.253 E40.80826
G1 X75.605 Y80.067 E40.82656
G1 X76.941 Y77.812 E41.05812
G1 X77.134 Y77.563 E41.08595
G0 F600 X77.582 Y77.837
G1 F900 X79.719 Y76.322 E41.31738
G1 X80.006 Y76.199 E41.34497
G1 X82.574 Y75.684 E41.57636
G1 X82.885 Y75.687 E41.60384
G1 X85.445 Y76.261 E41.83562
G1 X85.729 Y76.392 E41.86326
G1 X87.83 Y77.957 E42.09471
G1 X88.036 Y78.19 E42.12219
G1 X89.319 Y80.471 E42.3534
G1 X89.412 Y80.769 E42.38098
G1 X89.656 Y83.381 E42.61274
G1 X89.62 Y83.691 E42.64032
G1 X88.781 Y86.173 E42.87178
G1 X88.621 Y86.441 E42.89936
G1 X86.845 Y88.368 E43.13088
G1 X86.591 Y88.549 E43.15843
G1 X84.184 Y89.587 E43.39002
G1 X83.878 Y89.648 E43.41758
G1 X81.257 Y89.617 E43.64916
G1 X80.953 Y89.549 E43.67668
G1 X78.574 Y88.458 E43.9079
G1 X78.324 Y88.271 E43.93549
G1 X76.595 Y86.304 E44.16686
G1 X76.442 Y86.033 E44.19435
G1 X75.66 Y83.53 E44.42603
G1 X75.631 Y83.219 E44.45362
G1 X75.935 Y80.617 E44.68506
G1 X76.035 Y80.322 E44.71258
G1 X77.371 Y78.067 E44.94415
G1 X77.582 Y77.837 E44.97172
G0 F600 X77.871 Y78.245
G1 F900 X80.008 Y76.73 E45.20315
G1 X80.104 Y76.689 E45.21237
G1 X82.672 Y76.174 E45.44377
G1 X82.776 Y76.175 E45.45295
G1 X85.336 Y76.749 E45.68474
G1 X85.43 Y76.793 E45.69391
G1 X87.531 Y78.358 E45.92536
G1 X87.6 Y78.435 E45.9345
G1 X88.883 Y80.716 E46.16571
G1 X88.914 Y80.816 E46.17496
G1 X89.158 Y83.428 E46.40672
G1 X89.146 Y83.531 E46.41589
G1 X88.307 Y86.013 E46.64735
G1 X88.254 Y86.102 E46.6565
G1 X86.478 Y88.029 E46.88803
G1 X86.393 Y88.09 E46.89727
G1 X83.986 Y89.128 E47.12885
G1 X83.884 Y89.148 E47.13804
G1 X81.263 Y89.117 E47.36961
G1 X81.162 Y89.094 E47.37876
G1 X78.783 Y88.003 E47.60999
G1 X78.699 Y87.941 E47.61921
G1 X76.97 Y85.974 E47.85058
G1 X76.919 Y85.884 E47.85972
G1 X76.137 Y83.381 E48.09139
G1 X76.128 Y83.277 E48.10062
G1 X76.432 Y80.675 E48.33206
G1 X76.465 Y80.577 E48.3412
G1 X77.801 Y78.322 E48.57276
G1 X77.871 Y78.245 E48.58195
G1 F600 E46.83195
G1 F480 Z1.425
G0 F600 X68.758 Y78.51 Z1.425
G1 F480 Z0.425
G1 F600 E48.58195
G1 F900 X69.025 Y79.066 E48.63644
G1 X69.217 Y79.651 E48.69084
G1 X69.347 Y80.397 E48.75774
G1 X69.591 Y83.009 E48.98951
G1 X69.609 Y83.625 E49.04395
G1 X69.546 Y84.238 E49.09839
G1 X69.362 Y84.972 E49.16525
G1 X68.523 Y87.454 E49.39671
G1 X68.288 Y88.024 E49.45118
G1 X67.982 Y88.558 E49.50556
G1 X67.516 Y89.152 E49.57226
G1 X65.74 Y91.079 E49.80378
G1 X65.294 Y91.504 E49.85821
