;Generated by Cura LulzBot Edition GCodeWriter Version: 3.6.37
;FLAVOR:Marlin
;TIME:691
;Filament used: 0.330863m
;Layer height: 0.18
;Generated with Cura_SteamEngine 3.6.37-win10
M82 ;absolute extrusion mode
;This G-Code has been generated specifically for the LulzBot Sidekick with a Universal Tool Head
;
;The following lines can be uncommented for printer specific fine tuning
;More information can be found at https://marlinfw.org/meta/gcode/ (Note: current values are based on SE Tool Head)
;
;M92 E420                 ;Set Axis Steps-per-unit
;M301 P21.0 I1.78 D61.93  ;Set Hotend PID
;M906 E960                ;TMC Motor Current
;
G90                       ; absolute coordinate
M82                       ; set extruder to absolute mode
G92 E0                    ; set extruder position to 0
M117 Heating...           ; progress indicator message on LCD
M140 S60.0   ; start bed heating up
M109 R140        ; soften filament before homing Z
G28                       ; Home all axis
G1 E-15 F100              ; retract filament
M104 S140         ; start extruder heating to probe temp
M190 S60.0   ; wait for bed to reach printing temp
G29                                        ; start auto leveling
G0 X0 Y0 F5000
M109 R210 ; wait for extruder to reach initial printing temp
M117 SideKick Printing...                  ; progress indicator message on LCD
G1 Z2 E0 F75                               ; prime tiny bit of filament into the nozzle
M221 S100 T0
G92 E0
G1 F600 E-1.75
;LAYER_COUNT:34
;LAYER:0
M107
;MESH:
G0 F600 X62.376 Y80.376 Z0.425
;TYPE:WALL-INNER
G1 F600 E0
G1 F900 X62.376 Y84.924 E0.4018
G1 X66.924 Y84.924 E0.80361
G1 X66.924 Y80.376 E1.20541
G1 X62.376 Y80.376 E1.60721
G0 F600 X62.306 Y80.306
G0 X62.348 Y84.952
G0 X67.556 Y87.304
G0 X67.61 Y87.388
G1 F900 X67.47 Y87.473 E1.62168
G1 X67.071 Y87.684 E1.66156
G1 X66.919 Y87.755 E1.67638
G1 X66.532 Y87.91 E1.71321
G1 X66.348 Y87.972 E1.73036
G1 X65.941 Y88.085 E1.76768
G1 X65.765 Y88.124 E1.78361
G1 X65.336 Y88.193 E1.822
G1 X65.163 Y88.213 E1.83738
G1 X64.74 Y88.235 E1.8748
G1 X64.563 Y88.236 E1.89044
G1 X64.134 Y88.212 E1.9284
G1 X63.962 Y88.193 E1.94369
G1 X63.536 Y88.125 E1.9818
G1 X63.36 Y88.086 E1.99773
G1 X62.955 Y87.974 E2.03485
G1 X62.77 Y87.911 E2.05212
G1 X62.388 Y87.758 E2.08847
G1 X62.228 Y87.684 E2.10405
G1 X61.84 Y87.479 E2.14282
G1 X61.698 Y87.394 E2.15744
G1 X61.352 Y87.159 E2.19439
G1 X61.192 Y87.036 E2.21222
G1 X60.858 Y86.753 E2.2509
G1 X60.748 Y86.649 E2.26427
G1 X60.445 Y86.328 E2.30327
G1 X60.34 Y86.205 E2.31756
G1 X60.074 Y85.854 E2.35646
G1 X59.972 Y85.702 E2.37264
G1 X59.749 Y85.33 E2.41095
G1 X59.676 Y85.194 E2.42459
G1 X59.491 Y84.792 E2.46369
G1 X59.432 Y84.644 E2.47776
G1 X59.291 Y84.225 E2.51682
G1 X59.243 Y84.06 E2.532
G1 X59.152 Y83.637 E2.57023
G1 X59.123 Y83.459 E2.58616
G1 X59.077 Y83.035 E2.62384
G1 X59.067 Y82.858 E2.6395
G1 X59.068 Y82.431 E2.67723
G1 X59.076 Y82.266 E2.69182
G1 X59.121 Y81.854 E2.72844
G1 X59.156 Y81.64 E2.74759
G1 X59.247 Y81.22 E2.78556
G1 X59.431 Y80.657 E2.83789
G1 X59.49 Y80.509 E2.85197
G1 X59.678 Y80.102 E2.89157
G1 X59.748 Y79.971 E2.9047
G1 X59.97 Y79.599 E2.94297
G1 X60.08 Y79.438 E2.96019
G1 X60.345 Y79.088 E2.99898
G1 X60.444 Y78.973 E3.01239
G1 X60.741 Y78.658 E3.05063
G1 X60.87 Y78.537 E3.06626
G1 X61.203 Y78.255 E3.10481
G1 X61.344 Y78.147 E3.1205
G1 X61.697 Y77.907 E3.15821
G1 X61.839 Y77.822 E3.17284
G1 X62.227 Y77.617 E3.21161
G1 X62.387 Y77.543 E3.22718
G1 X62.769 Y77.39 E3.26353
G1 X62.954 Y77.327 E3.2808
G1 X63.359 Y77.215 E3.31792
G1 X63.535 Y77.176 E3.33385
G1 X63.964 Y77.107 E3.37224
G1 X64.137 Y77.087 E3.38762
G1 X64.56 Y77.065 E3.42505
G1 X64.738 Y77.065 E3.44077
G1 X65.164 Y77.088 E3.47846
G1 X65.338 Y77.107 E3.49393
G1 X65.764 Y77.175 E3.53204
G1 X65.94 Y77.214 E3.54796
G1 X66.345 Y77.326 E3.58509
G1 X66.531 Y77.389 E3.60244
G1 X66.901 Y77.537 E3.63764
G1 X67.078 Y77.619 E3.65488
G1 X67.465 Y77.824 E3.69357
G1 X67.595 Y77.902 E3.70696
G1 X67.943 Y78.137 E3.74406
G1 X68.106 Y78.261 E3.76216
G1 X68.433 Y78.538 E3.80002
G1 X68.547 Y78.646 E3.81389
G1 X68.855 Y78.972 E3.85351
G1 X68.96 Y79.095 E3.8678
G1 X69.219 Y79.437 E3.9057
G1 X69.329 Y79.598 E3.92293
G1 X69.618 Y80.095 E3.97372
G1 X69.809 Y80.508 E4.01392
G1 X69.865 Y80.648 E4.02724
G1 X70.052 Y81.219 E4.08033
G1 X70.148 Y81.663 E4.12046
G1 X70.176 Y81.829 E4.13533
G1 X70.221 Y82.249 E4.17265
G1 X70.233 Y82.444 E4.18991
G1 X70.232 Y82.866 E4.22719
G1 X70.224 Y83.032 E4.24188
G1 X70.178 Y83.463 E4.28017
G1 X70.149 Y83.636 E4.29567
G1 X70.058 Y84.059 E4.33389
G1 X70.01 Y84.224 E4.34907
G1 X69.869 Y84.643 E4.38813
G1 X69.807 Y84.799 E4.40296
G1 X69.634 Y85.174 E4.43945
G1 X69.551 Y85.33 E4.45506
G1 X69.334 Y85.694 E4.4925
G1 X69.213 Y85.873 E4.51159
G1 X68.966 Y86.2 E4.54779
G1 X68.864 Y86.319 E4.56164
G1 X68.562 Y86.638 E4.60045
G1 X68.42 Y86.772 E4.6177
G1 X68.109 Y87.035 E4.65368
G1 X67.942 Y87.163 E4.67227
G1 X67.61 Y87.388 E4.7077
G0 F600 X67.556 Y87.304
G0 X68.354 Y86.698
G0 X68.761 Y87.138
;TYPE:WALL-OUTER
G1 F900 X68.414 Y87.432 E4.74788
G1 X68.246 Y87.561 E4.7666
G1 X67.88 Y87.809 E4.80565
G1 X67.706 Y87.914 E4.82361
G1 X67.3 Y88.129 E4.8642
G1 X67.115 Y88.215 E4.88222
G1 X66.698 Y88.382 E4.92191
G1 X66.499 Y88.449 E4.94046
G1 X66.058 Y88.571 E4.98088
G1 X65.859 Y88.616 E4.99891
G1 X65.405 Y88.689 E5.03953
G1 X65.214 Y88.711 E5.05652
G1 X64.747 Y88.735 E5.09783
G1 X64.554 Y88.736 E5.11488
G1 X64.093 Y88.71 E5.15567
G1 X63.887 Y88.688 E5.17398
G1 X63.442 Y88.617 E5.21379
G1 X63.243 Y88.572 E5.23181
G1 X62.804 Y88.451 E5.27204
G1 X62.603 Y88.383 E5.29079
G1 X62.192 Y88.218 E5.32992
G1 X62.001 Y88.13 E5.3485
G1 X61.595 Y87.915 E5.38909
G1 X61.425 Y87.813 E5.4066
G1 X61.055 Y87.562 E5.4461
G1 X60.887 Y87.433 E5.46481
G1 X60.535 Y87.135 E5.50556
G1 X60.39 Y86.998 E5.52318
G1 X60.074 Y86.664 E5.56381
G1 X59.946 Y86.514 E5.58123
G1 X59.674 Y86.155 E5.62102
G1 X59.552 Y85.975 E5.64023
G1 X59.32 Y85.587 E5.68017
G1 X59.228 Y85.416 E5.69732
G1 X59.032 Y84.992 E5.73859
G1 X58.961 Y84.813 E5.75561
G1 X58.812 Y84.371 E5.79681
G1 X58.758 Y84.183 E5.81409
G1 X58.663 Y83.743 E5.85386
G1 X58.627 Y83.526 E5.8733
G1 X58.579 Y83.076 E5.91328
G1 X58.567 Y82.869 E5.9316
G1 X58.568 Y82.43 E5.97038
G1 X58.578 Y82.225 E5.98851
G1 X58.627 Y81.774 E6.02859
G1 X58.662 Y81.558 E6.04793
G1 X58.758 Y81.114 E6.08806
G1 X58.811 Y80.93 E6.10497
G1 X58.96 Y80.488 E6.14618
G1 X59.031 Y80.309 E6.1632
G1 X59.227 Y79.885 E6.20446
G1 X59.319 Y79.714 E6.22162
G1 X59.551 Y79.326 E6.26156
G1 X59.674 Y79.145 E6.28089
G1 X59.948 Y78.783 E6.321
G1 X60.073 Y78.637 E6.33798
G1 X60.389 Y78.303 E6.3786
G1 X60.536 Y78.165 E6.39642
G1 X60.89 Y77.864 E6.43747
G1 X61.054 Y77.739 E6.45569
G1 X61.424 Y77.488 E6.49519
G1 X61.594 Y77.386 E6.5127
G1 X62 Y77.171 E6.55329
G1 X62.191 Y77.083 E6.57187
G1 X62.602 Y76.918 E6.611
G1 X62.803 Y76.85 E6.62974
G1 X63.242 Y76.729 E6.66997
G1 X63.441 Y76.684 E6.688
G1 X63.895 Y76.611 E6.72862
G1 X64.086 Y76.589 E6.74561
G1 X64.553 Y76.565 E6.78692
G1 X64.747 Y76.565 E6.80406
G1 X65.206 Y76.59 E6.84467
G1 X65.413 Y76.612 E6.86306
G1 X65.858 Y76.683 E6.90288
G1 X66.057 Y76.728 E6.9209
G1 X66.496 Y76.849 E6.96113
G1 X66.697 Y76.917 E6.97988
G1 X67.107 Y77.081 E7.01889
G1 X67.299 Y77.17 E7.03759
G1 X67.705 Y77.385 E7.07818
G1 X67.871 Y77.485 E7.0953
G1 X68.245 Y77.738 E7.13519
G1 X68.409 Y77.863 E7.15341
G1 X68.765 Y78.165 E7.19465
G1 X68.91 Y78.302 E7.21227
G1 X69.226 Y78.636 E7.2529
G1 X69.354 Y78.786 E7.27032
G1 X69.625 Y79.144 E7.30999
G1 X69.748 Y79.325 E7.32932
G1 X69.98 Y79.713 E7.36926
G1 X70.072 Y79.884 E7.38641
G1 X70.268 Y80.308 E7.42768
G1 X70.339 Y80.487 E7.44469
G1 X70.488 Y80.929 E7.4859
G1 X70.541 Y81.113 E7.50282
G1 X70.637 Y81.557 E7.54295
G1 X70.671 Y81.76 E7.56114
G1 X70.72 Y82.212 E7.6013
G1 X70.733 Y82.431 E7.62069
G1 X70.732 Y82.87 E7.65947
G1 X70.722 Y83.075 E7.6776
G1 X70.673 Y83.533 E7.7183
G1 X70.638 Y83.742 E7.73702
G1 X70.543 Y84.182 E7.77679
G1 X70.489 Y84.37 E7.79407
G1 X70.34 Y84.812 E7.83528
G1 X70.269 Y84.991 E7.85229
G1 X70.079 Y85.403 E7.89237
G1 X69.981 Y85.586 E7.91071
G1 X69.749 Y85.974 E7.95065
G1 X69.626 Y86.155 E7.96998
G1 X69.36 Y86.507 E8.00896
G1 X69.227 Y86.663 E8.02707
G1 X68.915 Y86.993 E8.0672
G1 X68.761 Y87.138 E8.08588
G0 F600 X68.57 Y87.299
G0 X68.185 Y86.841
G0 X66.952 Y80.348
G0 X62.876 Y80.276
G0 X62.876 Y80.876
G1 F900 X62.876 Y84.424 E8.39934
G1 X66.424 Y84.424 E8.7128
G1 X66.424 Y80.876 E9.02625
G1 X62.876 Y80.876 E9.33971
G0 F600 X62.876 Y81.126
G0 X62.276 Y81.126
G0 X61.886 Y79.886
;TYPE:SKIN
G1 F900 X61.886 Y85.414 E9.82809
G1 X67.414 Y85.414 E10.31648
G1 X67.414 Y79.886 E10.80486
G1 X61.886 Y79.886 E11.29324
G0 F600 X60.725 Y79.397
G1 F900 X61.098 Y78.995 E11.34169
G1 X61.187 Y78.911 E11.3525
G1 X61.52 Y78.629 E11.39105
G1 X61.625 Y78.549 E11.40272
G1 X61.961 Y78.32 E11.43864
G1 X62.09 Y78.243 E11.45191
G1 X62.438 Y78.06 E11.48665
G1 X62.59 Y77.989 E11.50147
G1 X62.939 Y77.85 E11.53466
G1 X63.106 Y77.793 E11.55025
G1 X63.477 Y77.691 E11.58424
G1 X63.619 Y77.659 E11.5971
G1 X64.042 Y77.591 E11.63495
G1 X64.162 Y77.577 E11.64563
G1 X64.585 Y77.555 E11.68305
G1 X64.712 Y77.555 E11.69427
G1 X65.118 Y77.576 E11.73019
G1 X65.284 Y77.595 E11.74495
G1 X65.676 Y77.657 E11.78001
G1 X66.201 Y77.794 E11.82794
G1 X66.359 Y77.848 E11.8427
G1 X66.71 Y77.988 E11.87608
G1 X66.861 Y78.059 E11.89082
G1 X67.223 Y78.25 E11.92698
G1 X67.335 Y78.318 E11.93856
G1 X67.657 Y78.535 E11.97286
G1 X67.798 Y78.643 E11.98856
G1 X68.115 Y78.911 E12.02523
G1 X68.2 Y78.992 E12.0356
G1 X68.579 Y79.403 E12.08499
G1 X68.829 Y79.733 E12.12157
G1 X68.909 Y79.85 E12.13409
G1 X69.178 Y80.313 E12.1814
G1 X69.364 Y80.714 E12.22045
G1 X69.404 Y80.815 E12.23005
G1 X69.582 Y81.36 E12.2807
G1 X69.657 Y81.705 E12.31189
G1 X69.69 Y81.897 E12.32911
G1 X69.731 Y82.279 E12.36305
G1 X69.743 Y82.474 E12.38031
G1 X69.736 Y82.98 E12.42502
G1 X69.692 Y83.396 E12.46197
G1 X69.666 Y83.552 E12.47595
G1 X69.583 Y83.94 E12.511
G1 X69.409 Y84.474 E12.56062
G1 X69.36 Y84.598 E12.5724
G1 X69.201 Y84.944 E12.60604
G1 X69.125 Y85.088 E12.62043
G1 X68.922 Y85.429 E12.65549
G1 X68.813 Y85.591 E12.67274
G1 X68.588 Y85.888 E12.70565
G1 X68.508 Y85.982 E12.71656
G1 X68.22 Y86.286 E12.75356
G1 X68.083 Y86.415 E12.77018
G1 X67.8 Y86.655 E12.80296
G1 X67.667 Y86.757 E12.81777
G1 X67.348 Y86.973 E12.85181
G1 X67.222 Y87.05 E12.86485
G1 X66.858 Y87.242 E12.90121
G1 X66.724 Y87.305 E12.91429
G1 X66.359 Y87.451 E12.94902
G1 X66.205 Y87.504 E12.96341
G1 X65.823 Y87.609 E12.99841
G1 X65.681 Y87.641 E13.01127
G1 X65.258 Y87.709 E13.04912
G1 X65.138 Y87.723 E13.0598
G1 X64.715 Y87.745 E13.09722
G1 X64.587 Y87.746 E13.10853
G1 X64.039 Y87.709 E13.15705
G1 X63.624 Y87.643 E13.19418
G1 X63.102 Y87.506 E13.24185
G1 X62.941 Y87.451 E13.25689
G1 X62.579 Y87.307 E13.2913
G1 X62.445 Y87.244 E13.30439
G1 X62.083 Y87.053 E13.34055
G1 X61.949 Y86.973 E13.35433
G1 X61.639 Y86.762 E13.38746
G1 X61.501 Y86.655 E13.40289
G1 X61.175 Y86.379 E13.44063
G1 X60.802 Y85.991 E13.48818
G1 X60.723 Y85.899 E13.49889
G1 X60.472 Y85.569 E13.53552
G1 X60.386 Y85.44 E13.54922
G1 X60.17 Y85.079 E13.58639
G1 X60.115 Y84.976 E13.5967
G1 X59.939 Y84.594 E13.63386
G1 X59.891 Y84.472 E13.64544
G1 X59.755 Y84.068 E13.6831
G1 X59.718 Y83.94 E13.69487
G1 X59.634 Y83.547 E13.73038
G1 X59.611 Y83.404 E13.74317
G1 X59.565 Y82.982 E13.78068
G1 X59.557 Y82.831 E13.79404
G1 X59.564 Y82.319 E13.83928
G1 X59.609 Y81.907 E13.87589
G1 X59.638 Y81.731 E13.89165
G1 X59.721 Y81.349 E13.92619
G1 X59.892 Y80.823 E13.97505
G1 X59.935 Y80.714 E13.9854
G1 X60.169 Y80.222 E14.03353
G1 X60.391 Y79.85 E14.07181
G1 X60.47 Y79.734 E14.08421
G1 X60.725 Y79.397 E14.12154
G0 F600 X61.41 Y85.888
G1 F900 X61.411 Y85.453 E14.15997
G1 X60.384 Y84.425 E14.28835
G1 X60.375 Y84.407 E14.29013
G1 X60.333 Y84.299 E14.30037
G1 X60.204 Y83.915 E14.33616
G1 X60.175 Y83.815 E14.34535
G1 X60.1 Y83.459 E14.3775
G1 X60.095 Y83.43 E14.3801
G1 X61.411 Y84.746 E14.54452
G1 X61.411 Y84.038 E14.60707
G1 X60.034 Y82.661 E14.77911
G1 X60.039 Y82.355 E14.80615
G1 X60.076 Y81.996 E14.83804
G1 X61.411 Y83.331 E15.00483
G1 X61.411 Y82.624 E15.0673
G1 X60.199 Y81.412 E15.21873
G1 X60.339 Y80.984 E15.25851
G1 X60.37 Y80.902 E15.26625
G1 X60.378 Y80.884 E15.26799
G1 X61.411 Y81.917 E15.39706
G1 X61.411 Y81.21 E15.45952
G1 X60.609 Y80.408 E15.55972
G1 X60.783 Y80.117 E15.58968
G1 X60.862 Y80.001 E15.60208
G1 X60.882 Y79.974 E15.60505
G1 X61.411 Y80.503 E15.67114
G1 X61.411 Y79.796 E15.7336
G1 X61.197 Y79.582 E15.76034
G1 X61.43 Y79.333 E15.79047
G1 X61.499 Y79.268 E15.79884
G1 X61.549 Y79.227 E15.80455
G1 X61.732 Y79.41 E15.82742
G1 X62.439 Y79.41 E15.88988
G1 X61.939 Y78.91 E15.95235
G1 X62.229 Y78.712 E15.98337
G1 X62.322 Y78.655 E15.99301
G1 X62.368 Y78.632 E15.99755
G1 X63.146 Y79.41 E16.09476
G1 X63.853 Y79.41 E16.15722
G1 X62.843 Y78.399 E16.28347
G1 X63.093 Y78.298 E16.3073
G1 X63.253 Y78.244 E16.32221
G1 X63.365 Y78.214 E16.33246
G1 X64.56 Y79.41 E16.48183
G1 X65.268 Y79.41 E16.54438
G1 X63.945 Y78.087 E16.70967
G1 X64.118 Y78.059 E16.72516
G1 X64.186 Y78.051 E16.73121
G1 X64.595 Y78.03 E16.76739
G1 X65.975 Y79.41 E16.93981
G1 X66.682 Y79.41 E17.00227
G1 X65.359 Y78.087 E17.16757
G1 X65.573 Y78.12 E17.1867
G1 X66.06 Y78.247 E17.23116
G1 X66.204 Y78.297 E17.24463
G1 X66.325 Y78.346 E17.25616
G0 F600 X66.857 Y78.878
G1 F900 X67.888 Y79.659 E17.38462
G1 X68.629 Y80.312 E17.48272
G1 X67.231 Y78.821 E17.68572
G1 X66.429 Y78.387 E17.77628
G1 X68.552 Y81.28 E18.13268
G1 X69.266 Y82.601 E18.28182
G1 X67.888 Y81.676 E18.44666
G1 X69.205 Y83.426 E18.66419
G1 X69.105 Y83.87 E18.70939
G1 X67.888 Y83.09 E18.85296
G1 X68.742 Y84.793 E19.04217
G1 X67.888 Y84.505 E19.13169
G1 X67.98 Y85.658 E19.24657
G1 X67.355 Y86.393 E19.34239
G1 X66.488 Y86.287 E19.42914
G1 X66.478 Y86.889 E19.48894
G1 X65.027 Y85.888 E19.66402
G1 X65.795 Y87.122 E19.80838
G1 X65.447 Y87.195 E19.84369
G1 X63.613 Y85.888 E20.06737
G1 X63.95 Y86.578 E20.14363
G1 X63.982 Y87.218 E20.20728
G1 X62.199 Y85.888 E20.4282
G1 X62.716 Y86.845 E20.53624
G1 X60.97 Y85.44 E20.75882
G1 X60.558 Y84.797 E20.83467
G0 F600 X60.535 Y84.752
G1 F600 E19.08467
G1 F480 Z1.425
G0 F600 X60.535 Y84.752 Z1.425
G0 X80.376 Y80.376
;TYPE:WALL-INNER
G1 F480 Z0.425
G1 F600 E20.83467
G1 F900 X80.376 Y84.924 E21.23647
G1 X84.924 Y84.924 E21.63827
G1 X84.924 Y80.376 E22.04008
G1 X80.376 Y80.376 E22.44188
G0 F600 X80.306 Y80.306
G0 X80.348 Y84.952
G0 X85.556 Y87.304
G0 X85.61 Y87.388
G1 F900 X85.47 Y87.473 E22.45635
G1 X85.071 Y87.684 E22.49623
G1 X84.919 Y87.755 E22.51105
G1 X84.532 Y87.91 E22.54788
G1 X84.348 Y87.972 E22.56503
G1 X83.941 Y88.085 E22.60235
G1 X83.765 Y88.124 E22.61828
G1 X83.336 Y88.193 E22.65667
G1 X83.163 Y88.213 E22.67205
G1 X82.74 Y88.235 E22.70947
G1 X82.563 Y88.236 E22.72511
G1 X82.134 Y88.212 E22.76307
G1 X81.962 Y88.193 E22.77836
G1 X81.536 Y88.125 E22.81647
G1 X81.36 Y88.086 E22.8324
G1 X80.955 Y87.974 E22.86952
G1 X80.77 Y87.911 E22.88679
G1 X80.388 Y87.758 E22.92314
G1 X80.228 Y87.684 E22.93872
G1 X79.84 Y87.479 E22.97749
G1 X79.698 Y87.394 E22.99211
G1 X79.352 Y87.159 E23.02906
G1 X79.192 Y87.036 E23.04689
G1 X78.858 Y86.753 E23.08556
G1 X78.748 Y86.649 E23.09894
G1 X78.445 Y86.328 E23.13794
G1 X78.34 Y86.205 E23.15222
G1 X78.074 Y85.854 E23.19113
G1 X77.972 Y85.702 E23.2073
G1 X77.749 Y85.33 E23.24562
G1 X77.676 Y85.194 E23.25926
G1 X77.491 Y84.792 E23.29836
G1 X77.432 Y84.644 E23.31243
G1 X77.291 Y84.225 E23.35149
G1 X77.243 Y84.06 E23.36667
G1 X77.152 Y83.637 E23.4049
G1 X77.123 Y83.459 E23.42083
G1 X77.077 Y83.035 E23.45851
G1 X77.067 Y82.858 E23.47417
G1 X77.068 Y82.431 E23.51189
G1 X77.076 Y82.266 E23.52649
G1 X77.121 Y81.854 E23.5631
G1 X77.156 Y81.64 E23.58226
G1 X77.247 Y81.22 E23.62023
G1 X77.431 Y80.657 E23.67256
G1 X77.49 Y80.509 E23.68663
G1 X77.678 Y80.102 E23.72624
G1 X77.748 Y79.971 E23.73936
G1 X77.97 Y79.599 E23.77764
G1 X78.08 Y79.438 E23.79486
G1 X78.345 Y79.088 E23.83365
G1 X78.444 Y78.973 E23.84705
G1 X78.741 Y78.658 E23.8853
G1 X78.87 Y78.537 E23.90093
G1 X79.203 Y78.255 E23.93948
G1 X79.344 Y78.147 E23.95517
G1 X79.697 Y77.907 E23.99288
G1 X79.839 Y77.822 E24.0075
