;Generated by Cura LulzBot Edition GCodeWriter Version: 3.6.37
;FLAVOR:Marlin
;TIME:674
;Filament used: 0.315195m
;Layer height: 0.18
;Generated with Cura_SteamEngine 3.6.37-win10
M82 ;absolute extrusion mode
;This G-Code has been generated specifically for the LulzBot Sidekick with a Universal Tool Head
;
;The following lines can be uncommented for printer specific fine tuning
;More information can be found at https://marlinfw.org/meta/gcode/ (Note: current values are based on SE Tool Head)
;
;M92 E420                 ;Set Axis Steps-per-unit
;M301 P21.0 I1.78 D61.93  ;Set Hotend PID
;M906 E960                ;TMC Motor Current
;
G90                       ; absolute coordinate
M82                       ; set extruder to absolute mode
G92 E0                    ; set extruder position to 0
M117 Heating...           ; progress indicator message on LCD
M140 S60.0   ; start bed heating up
M109 R140        ; soften filament before homing Z
G28                       ; Home all axis
G1 E-15 F100              ; retract filament
M104 S140         ; start extruder heating to probe temp
M190 S60.0   ; wait for bed to reach printing temp
G29                                        ; start auto leveling
G0 X0 Y0 F5000
M109 R210 ; wait for extruder to reach initial printing temp
M117 SideKick Printing...                  ; progress indicator message on LCD
G1 Z2 E0 F75                               ; prime tiny bit of filament into the nozzle
M221 S100 T0
G92 E0
G1 F600 E-1.75
;LAYER_COUNT:34
;LAYER:0
M107
;MESH:
G0 F600 X62.376 Y80.445 Z0.425
;TYPE:WALL-INNER
G1 F600 E0
G1 F900 X62.376 Y84.993 E0.4018
G1 X66.924 Y84.993 E0.80361
G1 X66.924 Y80.445 E1.20541
G1 X62.376 Y80.445 E1.60721
G0 F600 X62.306 Y80.375
G0 X66.838 Y77.735
G0 X66.864 Y77.639
G1 F900 X66.92 Y77.658 E1.61244
G1 X68.736 Y78.978 E1.81078
G1 X68.78 Y79.018 E1.81603
G1 X69.91 Y80.974 E2.01561
G1 X69.929 Y81.019 E2.01992
G1 X70.164 Y83.26 E2.21899
G1 X70.164 Y83.316 E2.22394
G1 X69.471 Y85.448 E2.422
G1 X69.446 Y85.504 E2.42742
G1 X67.94 Y87.178 E2.62635
G1 X67.899 Y87.215 E2.63123
G1 X65.847 Y88.128 E2.82965
G1 X65.787 Y88.148 E2.83524
G1 X63.542 Y88.147 E3.03358
G1 X63.478 Y88.141 E3.03926
G1 X61.429 Y87.229 E3.2374
G1 X61.379 Y87.2 E3.24251
G1 X59.872 Y85.524 E3.44164
G1 X59.84 Y85.48 E3.44644
G1 X59.132 Y83.287 E3.65003
G1 X59.379 Y80.993 E3.85387
G1 X60.506 Y79.04 E4.05308
G1 X60.536 Y78.998 E4.05764
G1 X62.364 Y77.671 E4.25721
G1 X62.406 Y77.646 E4.26153
G1 X64.611 Y77.179 E4.46065
G1 X64.664 Y77.173 E4.46537
G1 X66.864 Y77.639 E4.66404
G0 F600 X66.995 Y77.156
;TYPE:WALL-OUTER
G1 F900 X67.15 Y77.207 E4.67846
G1 X69.053 Y78.591 E4.88634
G1 X69.173 Y78.698 E4.90055
G1 X70.355 Y80.746 E5.10946
G1 X70.418 Y80.886 E5.12302
G1 X70.664 Y83.235 E5.33168
G1 X70.665 Y83.393 E5.34564
G1 X69.936 Y85.635 E5.55392
G1 X69.871 Y85.779 E5.56788
G1 X68.294 Y87.532 E5.7762
G1 X68.174 Y87.64 E5.79046
G1 X66.028 Y88.595 E5.99798
G1 X65.867 Y88.648 E6.01296
G1 X63.515 Y88.647 E6.22075
G1 X63.35 Y88.631 E6.2354
G1 X61.202 Y87.675 E6.44311
G1 X61.06 Y87.593 E6.4576
G1 X59.483 Y85.839 E6.66598
G1 X59.389 Y85.711 E6.68001
G1 X58.659 Y83.465 E6.88866
G1 X58.627 Y83.314 E6.9023
G1 X58.875 Y80.964 E7.11106
G1 X58.907 Y80.811 E7.12487
G1 X60.087 Y78.765 E7.33354
G1 X60.179 Y78.639 E7.34732
G1 X62.084 Y77.256 E7.5553
G1 X62.224 Y77.174 E7.56963
G1 X64.531 Y76.685 E7.77798
G1 X64.69 Y76.668 E7.79211
G1 X66.995 Y77.156 E8.00026
G0 F600 X67.15 Y77.207
G0 X67.22 Y77.258
G0 X66.875 Y77.746
G0 X62.876 Y80.345
G0 X62.876 Y80.945
G1 F900 X62.876 Y84.493 E8.31372
G1 X66.424 Y84.493 E8.62717
G1 X66.424 Y80.945 E8.94063
G1 X62.876 Y80.945 E9.25409
G0 F600 X62.876 Y81.195
G0 X62.276 Y81.195
G0 X61.886 Y79.955
;TYPE:SKIN
G1 F900 X61.886 Y85.483 E9.74247
G1 X67.414 Y85.483 E10.23085
G1 X67.414 Y79.955 E10.71924
G1 X61.886 Y79.955 E11.20762
G0 F600 X60.9 Y79.339
G1 F900 X62.597 Y78.108 E11.39284
G1 X64.652 Y77.672 E11.57843
G1 X66.705 Y78.107 E11.76384
G1 X68.401 Y79.34 E11.94908
G1 X69.45 Y81.157 E12.13444
G1 X69.67 Y83.252 E12.32055
G1 X69.024 Y85.241 E12.50531
G1 X67.617 Y86.805 E12.69117
G1 X65.699 Y87.658 E12.87662
G1 X63.594 Y87.657 E13.06259
G1 X61.683 Y86.806 E13.2474
G1 X60.279 Y85.245 E13.43289
G1 X59.631 Y83.239 E13.61913
G1 X59.857 Y81.147 E13.80503
G1 X60.9 Y79.339 E13.98944
G0 F600 X68.037 Y79.662
G1 F900 X67.888 Y79.554 E14.00569
G1 X67.888 Y79.909 E14.03706
G1 X68.58 Y80.601 E14.12352
G0 F600 X67.888 Y79.909
G1 F900 X67.888 Y80.616 E14.18598
G1 X69.036 Y81.764 E14.32941
G1 X69.118 Y82.554 E14.39958
G1 X67.888 Y81.323 E14.55332
G1 X67.888 Y82.03 E14.61578
G1 X69.155 Y83.297 E14.77408
G1 X68.982 Y83.831 E14.82368
G1 X67.888 Y82.737 E14.96036
G1 X67.888 Y83.444 E15.02282
G1 X68.809 Y84.365 E15.13789
G1 X68.635 Y84.898 E15.18743
G1 X67.888 Y84.152 E15.2807
G1 X67.888 Y84.859 E15.34316
G1 X68.331 Y85.301 E15.39845
G1 X67.996 Y85.673 E15.44267
G1 X67.888 Y85.566 E15.45611
G0 F600 X67.942 Y85.732
G1 F900 X67.656 Y85.957 E15.49938
G1 X67.093 Y86.185 E15.57162
G1 X66.495 Y86.294 E15.64391
G1 X65.897 Y86.403 E15.71619
G1 X65.299 Y86.512 E15.78848
G1 X65.43 Y87.182 E15.86967
G1 X63.683 Y85.957 E16.12342
G1 X63.234 Y86.569 E16.21369
G1 X62.33 Y86.573 E16.32119
G1 X61.055 Y85.397 E16.52747
G1 X60.993 Y85.035 E16.57115
G1 X60.824 Y84.159 E16.67725
G1 X61.411 Y84.392 E16.75235
G1 X60.191 Y82.465 E17.02359
G1 X61.411 Y82.977 E17.18093
G1 X60.307 Y81.401 E17.40977
G1 X61.411 Y81.563 E17.54247
G1 X61.209 Y80.301 E17.69446
G1 X61.411 Y80.149 E17.72452
G0 F600 X61.411 Y79.796
G1 F900 X61.271 Y79.656 E17.74201
G0 F600 X61.341 Y79.605
G1 F900 X61.657 Y79.478 E17.78792
G1 X62.299 Y79.269 E17.87893
G1 X62.857 Y79.12 E17.95678
G1 X63.441 Y78.997 E18.03722
G1 X64.086 Y78.935 E18.12457
G1 X64.731 Y78.873 E18.21191
G1 X64.696 Y78.166 E18.30733
G1 X66.396 Y79.478 E18.59678
G1 X66.545 Y78.575 E18.72015
G1 X67.183 Y79.04 E18.82656
G0 F600 X66.581 Y78.602
G1 F600 E17.07656
G1 F480 Z1.425
G0 F600 X66.581 Y78.602 Z1.425
G0 X80.376 Y80.445
;TYPE:WALL-INNER
G1 F480 Z0.425
G1 F600 E18.82656
G1 F900 X80.376 Y84.993 E19.22836
G1 X84.924 Y84.993 E19.63017
G1 X84.924 Y80.445 E20.03197
G1 X80.376 Y80.445 E20.43377
G0 F600 X80.306 Y80.375
G0 X84.838 Y77.735
G0 X84.864 Y77.639
G1 F900 X84.92 Y77.658 E20.439
G1 X86.736 Y78.978 E20.63734
G1 X86.78 Y79.018 E20.6426
G1 X87.91 Y80.974 E20.84217
G1 X87.929 Y81.019 E20.84648
G1 X88.164 Y83.26 E21.04555
G1 X88.164 Y83.316 E21.0505
G1 X87.471 Y85.448 E21.24856
G1 X87.446 Y85.504 E21.25398
G1 X85.94 Y87.178 E21.45291
G1 X85.899 Y87.215 E21.45779
G1 X83.847 Y88.128 E21.65621
G1 X83.787 Y88.148 E21.6618
G1 X81.542 Y88.147 E21.86014
G1 X81.478 Y88.141 E21.86582
G1 X79.429 Y87.229 E22.06397
G1 X79.379 Y87.2 E22.06907
G1 X77.872 Y85.524 E22.2682
G1 X77.84 Y85.48 E22.273
G1 X77.132 Y83.287 E22.4766
G1 X77.379 Y80.993 E22.68044
G1 X78.506 Y79.04 E22.87965
G1 X78.536 Y78.998 E22.88421
G1 X80.364 Y77.671 E23.08377
G1 X80.406 Y77.646 E23.08809
G1 X82.611 Y77.179 E23.28722
G1 X82.664 Y77.173 E23.29193
G1 X84.864 Y77.639 E23.4906
G0 F600 X84.995 Y77.156
;TYPE:WALL-OUTER
G1 F900 X85.15 Y77.207 E23.50502
G1 X87.053 Y78.591 E23.71291
G1 X87.173 Y78.698 E23.72711
G1 X88.355 Y80.746 E23.93602
G1 X88.418 Y80.886 E23.94958
G1 X88.664 Y83.235 E24.15824
G1 X88.665 Y83.393 E24.1722
G1 X87.936 Y85.635 E24.38049
G1 X87.871 Y85.779 E24.39444
G1 X86.294 Y87.532 E24.60276
G1 X86.174 Y87.64 E24.61702
G1 X84.028 Y88.595 E24.82454
G1 X83.867 Y88.648 E24.83952
G1 X81.515 Y88.647 E25.04731
G1 X81.35 Y88.631 E25.06196
G1 X79.202 Y87.675 E25.26967
G1 X79.06 Y87.593 E25.28416
G1 X77.483 Y85.839 E25.49254
G1 X77.389 Y85.711 E25.50657
G1 X76.659 Y83.465 E25.71522
G1 X76.627 Y83.314 E25.72886
G1 X76.875 Y80.964 E25.93763
G1 X76.907 Y80.811 E25.95144
G1 X78.087 Y78.765 E26.1601
G1 X78.179 Y78.639 E26.17389
G1 X80.084 Y77.256 E26.38186
G1 X80.224 Y77.174 E26.3962
G1 X82.531 Y76.685 E26.60454
G1 X82.69 Y76.668 E26.61867
G1 X84.995 Y77.156 E26.82682
G0 F600 X85.15 Y77.207
G0 X85.22 Y77.258
G0 X84.875 Y77.746
G0 X80.876 Y80.345
G0 X80.876 Y80.945
G1 F900 X80.876 Y84.493 E27.14028
G1 X84.424 Y84.493 E27.45373
G1 X84.424 Y80.945 E27.76719
G1 X80.876 Y80.945 E28.08065
G0 F600 X80.876 Y81.195
G0 X80.276 Y81.195
G0 X79.886 Y79.955
;TYPE:SKIN
G1 F900 X79.886 Y85.483 E28.56903
G1 X85.414 Y85.483 E29.05741
G1 X85.414 Y79.955 E29.5458
G1 X79.886 Y79.955 E30.03418
G0 F600 X78.9 Y79.339
G1 F900 X80.597 Y78.108 E30.2194
G1 X82.652 Y77.672 E30.40499
G1 X84.705 Y78.107 E30.5904
G1 X86.401 Y79.34 E30.77565
G1 X87.45 Y81.157 E30.961
G1 X87.67 Y83.252 E31.14711
G1 X87.024 Y85.241 E31.33187
G1 X85.617 Y86.805 E31.51773
G1 X83.699 Y87.658 E31.70318
G1 X81.594 Y87.657 E31.88915
G1 X79.683 Y86.806 E32.07397
G1 X78.279 Y85.245 E32.25945
G1 X77.631 Y83.239 E32.44569
G1 X77.857 Y81.147 E32.63159
G1 X78.9 Y79.339 E32.816
G0 F600 X86.037 Y79.663
G1 F900 X86.001 Y79.637 E32.81992
G1 X85.888 Y79.555 E32.83225
G1 X85.888 Y80.231 E32.89198
G1 X86.99 Y81.333 E33.02966
G1 X87.073 Y82.124 E33.09993
G1 X85.888 Y80.938 E33.24805
G1 X85.888 Y81.645 E33.31051
G1 X87.156 Y82.913 E33.46894
G1 X87.186 Y83.202 E33.49461
G1 X87.076 Y83.541 E33.52609
G1 X85.888 Y82.352 E33.67459
G1 X85.888 Y83.059 E33.73705
G1 X86.903 Y84.074 E33.86386
G1 X86.729 Y84.608 E33.91348
G1 X85.888 Y83.766 E34.01862
G1 X85.888 Y84.473 E34.08108
G1 X86.513 Y85.098 E34.15917
G1 X86.178 Y85.471 E34.20346
G1 X85.888 Y85.18 E34.23976
G0 F600 X86.033 Y85.632
G1 F900 X85.495 Y85.957 E34.34019
G1 X84.821 Y86.235 E34.45668
G0 F600 X85.1 Y86.514
G1 F900 X84.61 Y86.732 E34.50406
G1 X83.835 Y85.957 E34.60089
G1 X83.128 Y85.957 E34.66335
G1 X84.121 Y86.95 E34.78742
G1 X83.632 Y87.167 E34.83468
G1 X82.421 Y85.957 E34.98593
G1 X81.714 Y85.957 E35.04839
G1 X82.939 Y87.182 E35.20144
G1 X82.231 Y87.181 E35.26399
G1 X81.007 Y85.957 E35.41692
G1 X80.3 Y85.957 E35.47938
G1 X81.387 Y87.044 E35.61519
G1 X80.113 Y86.477 E35.73839
G1 X79.593 Y85.957 E35.80336
G0 F600 X79.557 Y85.957
G1 F900 X79.968 Y86.412 E35.85753
G0 F600 X80.04 Y86.444
G1 F900 X79.41 Y85.783 E35.87317
G0 F600 X79.41 Y85.774
G1 F900 X79.248 Y85.612 E35.89341
G0 F600 X79.41 Y85.774
G1 F900 X79.41 Y85.067 E35.95587
G1 X78.391 Y84.048 E36.08319
G1 X78.114 Y83.19 E36.16284
G1 X78.126 Y83.076 E36.17297
G1 X79.41 Y84.36 E36.3334
G1 X79.41 Y83.653 E36.39586
G1 X78.195 Y82.438 E36.54766
G1 X78.263 Y81.799 E36.60443
G1 X79.41 Y82.946 E36.74774
G1 X79.41 Y82.239 E36.8102
G1 X78.372 Y81.2 E36.93996
G1 X78.63 Y80.752 E36.98563
G1 X79.41 Y81.532 E37.08309
G1 X79.41 Y80.825 E37.14555
G1 X78.89 Y80.304 E37.21058
G1 X79.149 Y79.856 E37.2563
M104 S205
G1 X79.41 Y80.118 E37.28897
G0 F600 X79.149 Y79.856
G1 F900 X79.261 Y79.661 E37.30884
G0 F600 X79.335 Y79.607
G1 F900 X79.849 Y79.479 E37.37311
G1 X80.539 Y79.479 E37.45684
G1 X80.518 Y78.75 E37.54533
G1 X81.953 Y79.479 E37.74063
G1 X81.569 Y78.387 E37.88109
G1 X83.368 Y79.479 E38.13645
G1 X82.547 Y78.179 E38.32302
G1 X82.94 Y78.218 E38.37094
G1 X84.782 Y79.479 E38.64181
G1 X85.146 Y79.015 E38.71337
G0 F600 X85.785 Y79.479
G1 F600 E36.96337
G1 F480 Z1.425
;MESH:NONMESH
G0 F600 X85.785 Y79.479 Z1.425
G0 X62.376 Y80.445
;TIME_ELAPSED:50.978344
;LAYER:1
M140 S60
M221 S100 T0
M106 S255
;MESH:
G0 F1500 X62.376 Y80.445 Z1.605
;TYPE:WALL-INNER
G1 F480 Z0.605
G1 F600 E38.71337
G1 F1200 X62.376 Y84.993 E38.88354
G1 X66.924 Y84.993 E39.05372
G1 X66.924 Y80.445 E39.2239
G1 X62.376 Y80.445 E39.39407
G0 F1500 X62.306 Y80.375
G0 X66.597 Y77.732
G0 X66.622 Y77.636
G1 F1200 X66.964 Y77.748 E39.40754
G1 X68.514 Y78.874 E39.47922
G1 X68.784 Y79.117 E39.49281
G1 X69.748 Y80.787 E39.56496
G1 X69.891 Y81.11 E39.57818
G1 X70.092 Y83.024 E39.65019
G1 X70.093 Y83.381 E39.66355
G1 X69.498 Y85.215 E39.7357
G1 X69.353 Y85.537 E39.74891
G1 X68.066 Y86.968 E39.82092
G1 X67.8 Y87.208 E39.83433
G1 X66.046 Y87.988 E39.90616
G1 X65.701 Y88.101 E39.91974
G1 X63.779 Y88.1 E39.99166
G1 X63.421 Y88.063 E40.00513
G1 X61.665 Y87.282 E40.07704
G1 X61.357 Y87.104 E40.09035
G1 X60.068 Y85.672 E40.16244
G1 X59.858 Y85.383 E40.17581
G1 X59.262 Y83.549 E40.24796
G1 X59.189 Y83.203 E40.26119
G1 X59.39 Y81.291 E40.33313
G1 X59.464 Y80.94 E40.34655
G1 X60.428 Y79.268 E40.41877
G1 X60.635 Y78.984 E40.43192
G1 X62.185 Y77.857 E40.50363
G1 X62.501 Y77.674 E40.51729
G1 X64.385 Y77.275 E40.58935
G1 X64.741 Y77.237 E40.60275
G1 X66.622 Y77.636 E40.67469
G0 F1500 X66.749 Y77.152
;TYPE:WALL-OUTER
G1 F1200 X67.194 Y77.297 E40.69221
G1 X68.831 Y78.487 E40.76793
G1 X69.177 Y78.798 E40.78534
G1 X70.194 Y80.56 E40.86146
G1 X70.38 Y80.978 E40.87858
G1 X70.592 Y83 E40.95466
G1 X70.593 Y83.461 E40.97191
G1 X69.966 Y85.392 E41.04787
G1 X69.777 Y85.813 E41.06514
G1 X68.421 Y87.321 E41.14102
G1 X68.075 Y87.633 E41.15846
G1 X66.229 Y88.454 E41.23405
G1 X65.779 Y88.601 E41.25177
G1 X63.757 Y88.6 E41.32743
G1 X63.289 Y88.552 E41.34503
G1 X61.438 Y87.728 E41.42084
G1 X61.037 Y87.496 E41.43818
G1 X59.679 Y85.988 E41.51411
G1 X59.407 Y85.613 E41.53144
G1 X58.779 Y83.68 E41.60749
G1 X58.683 Y83.231 E41.62467
G1 X58.896 Y81.214 E41.70056
G1 X58.992 Y80.758 E41.718
G1 X60.007 Y78.998 E41.79402
G1 X60.278 Y78.626 E41.81124
G1 X61.919 Y77.433 E41.88716
G1 X62.318 Y77.202 E41.90441
G1 X64.305 Y76.781 E41.98041
G1 X64.767 Y76.732 E41.99779
G1 X66.749 Y77.152 E42.0736
G0 F1500 X66.986 Y77.229
G0 X66.799 Y77.799
G0 X62.876 Y80.345
G0 X62.876 Y80.945
G1 F1200 X62.876 Y84.493 E42.20636
G1 X66.424 Y84.493 E42.33912
G1 X66.424 Y80.945 E42.47187
G1 X62.876 Y80.945 E42.60463
G0 F1500 X62.876 Y81.195
G0 X62.276 Y81.195
G0 X61.886 Y79.955
;TYPE:SKIN
G1 F1350 X61.886 Y85.483 E42.81148
G1 X67.414 Y85.483 E43.01832
G1 X67.414 Y79.955 E43.22517
G1 X61.886 Y79.955 E43.43201
G0 F1500 X60.841 Y79.533
G1 F1350 X60.987 Y79.334 E43.44125
G1 X62.452 Y78.268 E43.50904
G1 X62.676 Y78.138 E43.51873
G1 X64.46 Y77.761 E43.58696
G1 X64.716 Y77.733 E43.59659
G1 X66.5 Y78.111 E43.66483
G1 X66.74 Y78.19 E43.67428
G1 X68.202 Y79.253 E43.74192
G1 X68.397 Y79.428 E43.75172
G1 X69.314 Y81.016 E43.82034
G1 X69.411 Y81.235 E43.8293
G1 X69.602 Y83.057 E43.89785
G1 X69.603 Y83.304 E43.90709
G1 X69.041 Y85.036 E43.97522
G1 X68.937 Y85.268 E43.98474
G1 X67.724 Y86.617 E44.05262
G1 X67.529 Y86.792 E44.06242
G1 X65.876 Y87.527 E44.13011
G1 X65.622 Y87.611 E44.14012
G1 X63.81 Y87.61 E44.20792
G1 X63.546 Y87.583 E44.21785
G1 X61.888 Y86.845 E44.28576
G1 X61.67 Y86.719 E44.29518
G1 X60.447 Y85.36 E44.36359
G1 X60.3 Y85.158 E44.37294
G1 X59.738 Y83.43 E44.44093
G1 X59.685 Y83.177 E44.4506
G1 X59.876 Y81.366 E44.51874
G1 X59.928 Y81.118 E44.52822
G1 X60.841 Y79.533 E44.59667
G0 F1500 X61.411 Y79.612
G1 F1350 X61.326 Y79.673 E44.60058
G1 X61.241 Y79.789 E44.60596
G1 X60.713 Y80.707 E44.64559
G1 X61.411 Y80.009 E44.68252
G1 X61.411 Y80.716 E44.70898
G1 X60.307 Y81.821 E44.76742
G1 X60.223 Y82.611 E44.79715
G1 X61.411 Y81.424 E44.85999
G1 X61.411 Y82.131 E44.88644
G1 X60.208 Y83.334 E44.9501
G1 X60.381 Y83.868 E44.97111
G1 X61.411 Y82.838 E45.02561
G1 X61.411 Y83.545 E45.05206
G1 X60.554 Y84.402 E45.09741
G1 X60.728 Y84.935 E45.11839
G1 X61.411 Y84.252 E45.15453
G1 X61.411 Y84.959 E45.18099
G1 X61.051 Y85.319 E45.20004
G1 X61.386 Y85.692 E45.2188
G0 F1500 X61.411 Y85.693
G1 F1350 X61.672 Y86.01 E45.24051
G1 X62.309 Y86.183 E45.27542
G1 X62.906 Y86.292 E45.30751
G0 F1500 X62.571 Y86.628
G1 F1350 X63.06 Y86.846 E45.32754
G1 X63.949 Y85.957 E45.37459
G1 X64.656 Y85.957 E45.40104
G1 X63.549 Y87.064 E45.45962
G1 X63.67 Y87.117 E45.46456
G1 X63.838 Y87.134 E45.47088
G1 X64.185 Y87.135 E45.48387
G1 X65.363 Y85.957 E45.5462
G1 X66.07 Y85.957 E45.57266
G1 X64.892 Y87.135 E45.63499
G1 X65.544 Y87.135 E45.65939
G1 X65.625 Y87.109 E45.66257
G1 X66.777 Y85.957 E45.72353
G1 X67.484 Y85.957 E45.74998
G1 X66.883 Y86.558 E45.78179
G0 F1500 X67.268 Y86.387
G1 F1350 X67.387 Y86.28 E45.78778
G1 X67.678 Y85.957 E45.80404
G0 F1500 X67.581 Y85.957
G1 F1350 X68.21 Y85.364 E45.84025
G1 X68.774 Y84.313 E45.8902
G0 F1500 X68.945 Y83.79
G1 F1350 X67.888 Y84.846 E45.94611
G1 X67.888 Y84.139 E45.97256
G1 X69.109 Y82.918 E46.03717
G1 X69.041 Y82.278 E46.06126
G1 X67.888 Y83.432 E46.1223
G1 X67.888 Y82.725 E46.14875
G1 X68.974 Y81.639 E46.20622
