;Generated by Cura LulzBot Edition GCodeWriter Version: 3.6.37
;FLAVOR:Marlin
;TIME:71
;Filament used: 0.0228426m
;Layer height: 0.18
;Generated with Cura_SteamEngine 3.6.37-win10
M82 ;absolute extrusion mode
;This G-Code has been generated specifically for the LulzBot Sidekick with a Universal Tool Head
;
;The following lines can be uncommented for printer specific fine tuning
;More information can be found at https://marlinfw.org/meta/gcode/ (Note: current values are based on SE Tool Head)
;
;M92 E420                 ;Set Axis Steps-per-unit
;M301 P21.0 I1.78 D61.93  ;Set Hotend PID
;M906 E960                ;TMC Motor Current
;
G90                       ; absolute coordinate
M82                       ; set extruder to absolute mode
G92 E0                    ; set extruder position to 0
M117 Heating...           ; progress indicator message on LCD
M140 S60.0   ; start bed heating up
M109 R140        ; soften filament before homing Z
G28                       ; Home all axis
G1 E-15 F100              ; retract filament
M104 S140         ; start extruder heating to probe temp
M190 S60.0   ; wait for bed to reach printing temp
G29                                        ; start auto leveling
G0 X0 Y0 F5000
M109 R210 ; wait for extruder to reach initial printing temp
M117 SideKick Printing...                  ; progress indicator message on LCD
G1 Z2 E0 F75                               ; prime tiny bit of filament into the nozzle
M221 S100 T0
G92 E0
G1 F600 E-1.75
;LAYER_COUNT:13
;LAYER:0
M107
;MESH:
G0 F600 X85.71 Y83.17 Z0.425
;TYPE:WALL-INNER
G1 F600 E0
G1 X79.59 Y83.17 E0.54069
G1 X79.59 Y82.13 E0.63257
G1 X85.71 Y82.13 E1.17325
G1 X85.71 Y83.17 E1.26513
G0 X86.21 Y83.67
;TYPE:WALL-OUTER
G1 X79.09 Y83.67 E1.89416
G1 X79.09 Y81.63 E2.07439
G1 X86.21 Y81.63 E2.70343
G1 X86.21 Y83.67 E2.88365
G0 X85.96 Y83.67
G0 X85.64 Y83.1
G0 X85.22 Y82.68
M104 S205
;TYPE:SKIN
G1 X80.08 Y82.68 E3.33776
G1 X80.08 Y82.62 E3.34306
G1 X85.22 Y82.62 E3.79716
G1 X85.22 Y82.68 E3.80246
G0 X85.21 Y82.67
;MESH:NONMESH
G0 X85.71 Y83.17
;TIME_ELAPSED:19.531979
;LAYER:1
M140 S60
M221 S100 T0
M106 S255
;MESH:
G0 F1500 X85.71 Y83.17 Z0.605
;TYPE:WALL-INNER
G1 F600 X79.59 Y83.17 E4.03146
G1 X79.59 Y82.13 E4.07038
G1 X85.71 Y82.13 E4.29937
G1 X85.71 Y83.17 E4.33829
G0 F1500 X86.21 Y83.67
;TYPE:WALL-OUTER
G1 F600 X79.09 Y83.67 E4.6047
G1 X79.09 Y81.63 E4.68103
G1 X86.21 Y81.63 E4.94745
G1 X86.21 Y83.67 E5.02378
G0 F1500 X85.96 Y83.67
G0 X85.64 Y83.1
G0 X85.22 Y82.68
;TYPE:SKIN
G1 F675 X80.08 Y82.68 E5.2161
G1 X80.08 Y82.62 E5.21835
G1 X85.22 Y82.62 E5.41068
G1 X85.22 Y82.68 E5.41292
G0 F1500 X85.21 Y82.67
;MESH:NONMESH
G0 X85.71 Y83.17
;TIME_ELAPSED:23.959365
;LAYER:2
;MESH:
G0 F2400 X85.71 Y83.17 Z0.785
;TYPE:WALL-INNER
G1 F600 X79.59 Y83.17 E5.64192
G1 X79.59 Y82.13 E5.68083
G1 X85.71 Y82.13 E5.90983
G1 X85.71 Y83.17 E5.94874
G0 F2400 X86.21 Y83.67
;TYPE:WALL-OUTER
G1 F600 X79.09 Y83.67 E6.21516
G1 X79.09 Y81.63 E6.29149
G1 X86.21 Y81.63 E6.5579
G1 X86.21 Y83.67 E6.63423
G0 F2400 X85.96 Y83.67
G0 X85.64 Y83.1
G0 X85.22 Y82.68
;TYPE:SKIN
G1 F720 X80.08 Y82.68 E6.82656
G1 X80.08 Y82.62 E6.8288
G1 X85.22 Y82.62 E7.02113
G1 X85.22 Y82.68 E7.02338
G0 F2400 X85.21 Y82.67
;MESH:NONMESH
G0 X85.71 Y83.17
;TIME_ELAPSED:28.327087
;LAYER:3
;MESH:
G0 X85.71 Y83.17 Z0.965
;TYPE:WALL-INNER
G1 F600 X79.59 Y83.17 E7.25237
G1 X79.59 Y82.13 E7.29129
G1 X85.71 Y82.13 E7.52028
G1 X85.71 Y83.17 E7.5592
G0 F2400 X86.21 Y83.67
;TYPE:WALL-OUTER
G1 F600 X79.09 Y83.67 E7.82561
G1 X79.09 Y81.63 E7.90194
G1 X86.21 Y81.63 E8.16836
G1 X86.21 Y83.67 E8.24469
G0 F2400 X85.96 Y83.67
G0 X85.64 Y83.1
G0 X85.22 Y82.68
;TYPE:SKIN
G1 F720 X80.08 Y82.68 E8.43702
G1 X80.08 Y82.62 E8.43926
G1 X85.22 Y82.62 E8.63159
G1 X85.22 Y82.68 E8.63383
G0 F2400 X85.21 Y82.67
;MESH:NONMESH
G0 X85.71 Y83.17
;TIME_ELAPSED:32.694808
;LAYER:4
;MESH:
G0 X85.71 Y83.17 Z1.145
;TYPE:WALL-INNER
G1 F600 X79.59 Y83.17 E8.86283
G1 X79.59 Y82.13 E8.90174
G1 X85.71 Y82.13 E9.13074
G1 X85.71 Y83.17 E9.16965
G0 F2400 X86.21 Y83.67
;TYPE:WALL-OUTER
G1 F600 X79.09 Y83.67 E9.43607
G1 X79.09 Y81.63 E9.5124
G1 X86.21 Y81.63 E9.77881
G1 X86.21 Y83.67 E9.85514
G0 F2400 X85.96 Y83.67
G0 X85.64 Y83.1
G0 X85.22 Y82.68
;TYPE:SKIN
G1 F720 X80.08 Y82.68 E10.04747
G1 X80.08 Y82.62 E10.04972
G1 X85.22 Y82.62 E10.24204
G1 X85.22 Y82.68 E10.24429
G0 F2400 X85.21 Y82.67
;MESH:NONMESH
G0 X85.71 Y83.17
;TIME_ELAPSED:37.062530
;LAYER:5
;MESH:
G0 X85.71 Y83.17 Z1.325
;TYPE:WALL-INNER
G1 F600 X79.59 Y83.17 E10.47328
G1 X79.59 Y82.13 E10.5122
G1 X85.71 Y82.13 E10.74119
G1 X85.71 Y83.17 E10.78011
G0 F2400 X86.21 Y83.67
;TYPE:WALL-OUTER
G1 F600 X79.09 Y83.67 E11.04652
G1 X79.09 Y81.63 E11.12285
G1 X86.21 Y81.63 E11.38927
G1 X86.21 Y83.67 E11.4656
G0 F2400 X85.96 Y83.67
G0 X85.64 Y83.1
G0 X85.22 Y82.68
;TYPE:SKIN
G1 F720 X80.08 Y82.68 E11.65793
G1 X80.08 Y82.62 E11.66017
G1 X85.22 Y82.62 E11.8525
G1 X85.22 Y82.68 E11.85474
G0 F2400 X85.21 Y82.67
;MESH:NONMESH
G0 X85.71 Y83.17
;TIME_ELAPSED:41.430252
;LAYER:6
;MESH:
G0 X85.71 Y83.17 Z1.505
;TYPE:WALL-INNER
G1 F600 X79.59 Y83.17 E12.08374
G1 X79.59 Y82.13 E12.12265
G1 X85.71 Y82.13 E12.35165
G1 X85.71 Y83.17 E12.39056
G0 F2400 X86.21 Y83.67
;TYPE:WALL-OUTER
G1 F600 X79.09 Y83.67 E12.65698
G1 X79.09 Y81.63 E12.73331
G1 X86.21 Y81.63 E12.99972
G1 X86.21 Y83.67 E13.07606
G0 F2400 X85.96 Y83.67
G0 X85.006 Y82.649
;TYPE:FILL
G1 F960 X82.649 Y82.649 E13.12794
G1 X80.291 Y82.649 E13.17984
G0 F2400 X80.09 Y82.63
;MESH:NONMESH
G0 X85.64 Y83.1
G0 X85.71 Y83.17
;TIME_ELAPSED:45.364953
;LAYER:7
;MESH:
G0 X85.71 Y83.17 Z1.685
;TYPE:WALL-INNER
G1 F600 X79.59 Y83.17 E13.40883
G1 X79.59 Y82.13 E13.44775
G1 X85.71 Y82.13 E13.67674
G1 X85.71 Y83.17 E13.71566
G0 F2400 X86.21 Y83.67
;TYPE:WALL-OUTER
G1 F600 X79.09 Y83.67 E13.98207
G1 X79.09 Y81.63 E14.0584
G1 X86.21 Y81.63 E14.32482
G1 X86.21 Y83.67 E14.40115
G0 F2400 X85.96 Y83.67
G0 X85.64 Y83.1
G0 X85.22 Y82.68
;TYPE:SKIN
G1 F720 X80.08 Y82.68 E14.59348
G1 X80.08 Y82.62 E14.59572
G1 X85.22 Y82.62 E14.78805
G1 X85.22 Y82.68 E14.79029
G0 F2400 X85.21 Y82.67
;MESH:NONMESH
G0 X85.71 Y83.17
;TIME_ELAPSED:49.732675
;LAYER:8
;MESH:
G0 X85.71 Y83.17 Z1.865
;TYPE:WALL-INNER
G1 F600 X79.59 Y83.17 E15.01929
G1 X79.59 Y82.13 E15.0582
G1 X85.71 Y82.13 E15.2872
G1 X85.71 Y83.17 E15.32611
G0 F2400 X86.21 Y83.67
;TYPE:WALL-OUTER
G1 F600 X79.09 Y83.67 E15.59253
G1 X79.09 Y81.63 E15.66886
G1 X86.21 Y81.63 E15.93527
G1 X86.21 Y83.67 E16.0116
G0 F2400 X85.96 Y83.67
G0 X85.64 Y83.1
G0 X85.22 Y82.68
;TYPE:SKIN
G1 F720 X80.08 Y82.68 E16.20393
G1 X80.08 Y82.62 E16.20618
G1 X85.22 Y82.62 E16.3985
G1 X85.22 Y82.68 E16.40075
G0 F2400 X85.21 Y82.67
;MESH:NONMESH
G0 X85.71 Y83.17
;TIME_ELAPSED:54.100397
;LAYER:9
;MESH:
G0 X85.71 Y83.17 Z2.045
;TYPE:WALL-INNER
G1 F600 X79.59 Y83.17 E16.62974
G1 X79.59 Y82.13 E16.66866
G1 X85.71 Y82.13 E16.89765
G1 X85.71 Y83.17 E16.93657
G0 F2400 X86.21 Y83.67
;TYPE:WALL-OUTER
G1 F600 X79.09 Y83.67 E17.20298
G1 X79.09 Y81.63 E17.27931
G1 X86.21 Y81.63 E17.54573
G1 X86.21 Y83.67 E17.62206
G0 F2400 X85.96 Y83.67
G0 X85.64 Y83.1
G0 X85.22 Y82.68
;TYPE:SKIN
G1 F720 X80.08 Y82.68 E17.81439
G1 X80.08 Y82.62 E17.81663
G1 X85.22 Y82.62 E18.00896
G1 X85.22 Y82.68 E18.0112
G0 F2400 X85.21 Y82.67
;MESH:NONMESH
G0 X85.71 Y83.17
;TIME_ELAPSED:58.468118
;LAYER:10
;MESH:
G0 X85.71 Y83.17 Z2.225
;TYPE:WALL-INNER
G1 F600 X79.59 Y83.17 E18.2402
G1 X79.59 Y82.13 E18.27911
G1 X85.71 Y82.13 E18.50811
G1 X85.71 Y83.17 E18.54702
G0 F2400 X86.21 Y83.67
;TYPE:WALL-OUTER
G1 F600 X79.09 Y83.67 E18.81344
G1 X79.09 Y81.63 E18.88977
G1 X86.21 Y81.63 E19.15618
G1 X86.21 Y83.67 E19.23252
G0 F2400 X85.96 Y83.67
G0 X85.64 Y83.1
G0 X85.22 Y82.68
;TYPE:SKIN
G1 F720 X80.08 Y82.68 E19.42484
G1 X80.08 Y82.62 E19.42709
G1 X85.22 Y82.62 E19.61941
G1 X85.22 Y82.68 E19.62166
G0 F2400 X85.21 Y82.67
;MESH:NONMESH
G0 X85.71 Y83.17
;TIME_ELAPSED:62.835840
;LAYER:11
;MESH:
G0 X85.71 Y83.17 Z2.405
;TYPE:WALL-INNER
G1 F600 X79.59 Y83.17 E19.85066
G1 X79.59 Y82.13 E19.88957
G1 X85.71 Y82.13 E20.11857
G1 X85.71 Y83.17 E20.15748
G0 F2400 X86.21 Y83.67
;TYPE:WALL-OUTER
G1 F600 X79.09 Y83.67 E20.42389
G1 X79.09 Y81.63 E20.50023
G1 X86.21 Y81.63 E20.76664
G1 X86.21 Y83.67 E20.84297
G0 F2400 X85.96 Y83.67
G0 X85.64 Y83.1
G0 X85.22 Y82.68
;TYPE:SKIN
G1 F720 X80.08 Y82.68 E21.0353
G1 X80.08 Y82.62 E21.03754
G1 X85.22 Y82.62 E21.22987
G1 X85.22 Y82.68 E21.23212
G0 F2400 X85.21 Y82.67
;MESH:NONMESH
G0 X85.71 Y83.17
;TIME_ELAPSED:67.203562
;LAYER:12
;MESH:
G0 X85.71 Y83.17 Z2.585
;TYPE:WALL-INNER
G1 F600 X79.59 Y83.17 E21.46111
G1 X79.59 Y82.13 E21.50003
G1 X85.71 Y82.13 E21.72902
G1 X85.71 Y83.17 E21.76794
G0 F2400 X86.21 Y83.67
;TYPE:WALL-OUTER
G1 F600 X79.09 Y83.67 E22.03435
G1 X79.09 Y81.63 E22.11068
G1 X86.21 Y81.63 E22.3771
G1 X86.21 Y83.67 E22.45343
G0 F2400 X85.96 Y83.67
G0 X85.64 Y83.1
G0 X85.22 Y82.68
;TYPE:SKIN
G1 F720 X80.08 Y82.68 E22.64575
G1 X80.08 Y82.62 E22.648
G1 X85.22 Y82.62 E22.84033
G1 X85.22 Y82.68 E22.84257
G0 F2400 X85.21 Y82.67
;TIME_ELAPSED:71.532086
G1 F600 E21.09257
M140 S0
M107
;This G-Code has been generated specifically for the LulzBot Sidekick with a Universal Tool Head
M400                                      ; wait for moves to finish
M140 S45.0 ; start bed cooling
M104 S0                                   ; disable hotend
M107                                      ; disable fans
G92 E5                                    ; set extruder to 5mm for retract on print end
M117 Cooling please wait                  ; progress indicator message on LCD
G1 Y-10 Z185 E0 F3000                     ; move to cooling position
G1 E5                                     ; re-prime extruder
M190 R45.0 ; wait for bed to cool down to removal temp
G27                                       ; present finished print
M140 S45.0; keep temperature or cool down
M77					                      ; End GLCD Print Timer
G90                                       ; absolute positioning
M18 X E				  	                  ; turn off x and e axis
M117 Print Complete.                      ; print complete message
M82 ;absolute extrusion mode
M104 S0
;End of Gcode
